(.../pcb-gcode-3.6.0.4/pcb-gcode.ulp)
(Copyright 2005 - 2012 by John Johnson)
(See readme.txt for licensing terms.)
(This file generated from the board:)
(.../COVID Inactivator controller + 10mm V2/OHS.brd)
(Current profile is .../pcb-gcode-3.6.0.4/profiles/generic.pp  )
(This file generated 2020/05/11 09:15)
(Settings from pcb-machine.h)
(  Tool Size)
(0.3000 )
(Z Axis Settings)
(  High     Up        Down     Drill)
(12.7000 	2.4000 	-0.1000 	-1.7000 )
(spindle on time = 3.0000)
(milling depth = -0.2540)
(text depth = -0.1270)
(tool change at 0.0000 -12.0000 20.0000 )
(feed rate xy = F100.00 )
(feed rate z  = F50.00 )
(Settings from pcb-defaults.h)
(isolate min = 0.0254)
(isolate max = 0.2000)
(isolate step = 0.0762)
(Generated top outlines, )
(Unit of measure: mm)
(Metric Mode)
G21
(Absolute Coordinates)
G90
G00 X0.0000 Y0.0000 
M03
G04 P3.000000
G00 Z2.400000
G00 X3.1352 Y73.2947 
G01 Z-1.7 F50.00 
G01 Z2.400000
(R2.4000  P1.000000)
(G00 Z2.400000)
G00 X114.0653 Y7.7281 
G01 Z-1.700000
G01 Z2.400000
(G00 Z2.400000)
G00 X115.0000 Y2.0000 
G01 Z-1.700000
G01 Z2.400000
(G00 Z2.400000)
G00 X5.4683 Y19.7796 
G01 Z-1.700000
G01 Z2.400000
(G00 Z2.400000)
G00 X20.1507 Y5.4857 
G01 Z-1.700000
G01 Z2.400000
(G00 Z2.400000)
G00 X61.9128 Y31.1228 
G01 Z-1.700000
G01 Z2.400000
(G00 Z2.400000)
G00 X51.7528 Y31.1228 
G01 Z-1.700000
G01 Z2.400000
(G00 Z2.400000)
G00 X48.2502 Y32.9563 
G01 Z-1.700000
G01 Z2.400000
(G00 Z2.400000)
G00 X48.2502 Y22.7963 
G01 Z-1.700000
G01 Z2.400000
(G00 Z2.400000)
G00 X61.6270 Y24.5633 
G01 Z-1.700000
G01 Z2.400000
(G00 Z2.400000)
G00 X51.4670 Y24.5633 
G01 Z-1.700000
G01 Z2.400000
(G00 Z2.400000)
G00 X64.3329 Y32.9656 
G01 Z-1.700000
G01 Z2.400000
(G00 Z2.400000)
G00 X64.3329 Y22.8056 
G01 Z-1.700000
G01 Z2.400000
(G00 Z2.400000)
G00 X5.5394 Y12.4867 
G01 Z-1.700000
G01 Z2.400000
(G00 Z2.400000)
G00 X100.1627 Y61.4525 
G01 Z-1.700000
G01 Z2.400000
(G00 Z2.400000)
G00 X107.6161 Y67.0522 
G01 Z-1.700000
G01 Z2.400000
(G00 Z2.400000)
G00 X78.6539 Y9.6986 
G01 Z-1.700000
G01 Z2.400000
(G00 Z2.400000)
G00 X100.0608 Y74.5711 
G01 Z-1.700000
G01 Z2.400000
(G00 Z2.400000)
G00 X107.7109 Y74.6406 
G01 Z-1.700000
G01 Z2.400000
(G00 Z2.400000)
G00 X84.8135 Y9.8134 
G01 Z-1.700000
G01 Z2.400000
(G00 Z2.400000)
G00 X31.4743 Y5.3110 
G01 Z-1.700000
G01 Z2.400000
(G00 Z2.400000)
G00 X74.8100 Y42.5400 
G01 Z-1.700000
G01 Z2.400000
(G00 Z2.400000)
G00 X74.8100 Y40.0000 
G01 Z-1.700000
G01 Z2.400000
(G00 Z2.400000)
G00 X74.8100 Y37.4600 
G01 Z-1.700000
G01 Z2.400000
(G00 Z2.400000)
G00 X67.1900 Y37.4600 
G01 Z-1.700000
G01 Z2.400000
(G00 Z2.400000)
G00 X67.1900 Y40.0000 
G01 Z-1.700000
G01 Z2.400000
(G00 Z2.400000)
G00 X67.1900 Y42.5400 
G01 Z-1.700000
G01 Z2.400000
(G00 Z2.400000)
G00 X74.2955 Y19.4334 
G01 Z-1.700000
G01 Z2.400000
(G00 Z2.400000)
G00 X74.2955 Y21.9734 
G01 Z-1.700000
G01 Z2.400000
(G00 Z2.400000)
G00 X74.2955 Y24.5134 
G01 Z-1.700000
G01 Z2.400000
(G00 Z2.400000)
G00 X81.9155 Y24.5134 
G01 Z-1.700000
G01 Z2.400000
(G00 Z2.400000)
G00 X81.9155 Y21.9734 
G01 Z-1.700000
G01 Z2.400000
(G00 Z2.400000)
G00 X81.9155 Y19.4334 
G01 Z-1.700000
G01 Z2.400000
(G00 Z2.400000)
G00 X43.1900 Y6.4600 
G01 Z-1.700000
G01 Z2.400000
(G00 Z2.400000)
G00 X43.1900 Y9.0000 
G01 Z-1.700000
G01 Z2.400000
(G00 Z2.400000)
G00 X43.1900 Y11.5400 
G01 Z-1.700000
G01 Z2.400000
(G00 Z2.400000)
G00 X50.8100 Y11.5400 
G01 Z-1.700000
G01 Z2.400000
(G00 Z2.400000)
G00 X50.8100 Y9.0000 
G01 Z-1.700000
G01 Z2.400000
(G00 Z2.400000)
G00 X50.8100 Y6.4600 
G01 Z-1.700000
G01 Z2.400000
(G00 Z2.400000)
G00 X54.2538 Y41.9823 
G01 Z-1.700000
G01 Z2.400000
(G00 Z2.400000)
G00 X46.6338 Y41.9823 
G01 Z-1.700000
G01 Z2.400000
(G00 Z2.400000)
G00 X54.0908 Y37.9126 
G01 Z-1.700000
G01 Z2.400000
(G00 Z2.400000)
G00 X46.4708 Y37.9126 
G01 Z-1.700000
G01 Z2.400000
(G00 Z2.400000)
G00 X13.1387 Y5.6447 
G01 Z-1.700000
G01 Z2.400000
(G00 Z2.400000)
G00 X5.5187 Y5.6447 
G01 Z-1.700000
G01 Z2.400000
(G00 Z2.400000)
G00 X38.2240 Y2.4434 
G01 Z-1.700000
G01 Z2.400000
(G00 Z2.400000)
G00 X38.2240 Y10.0634 
G01 Z-1.700000
G01 Z2.400000
(G00 Z2.400000)
G00 X40.1425 Y15.9800 
G01 Z-1.700000
G01 Z2.400000
(G00 Z2.400000)
G00 X47.7625 Y15.9800 
G01 Z-1.700000
G01 Z2.400000
(G00 Z2.400000)
G00 X56.0000 Y6.1900 
G01 Z-1.700000
G01 Z2.400000
(G00 Z2.400000)
G00 X56.0000 Y13.8100 
G01 Z-1.700000
G01 Z2.400000
(G00 Z2.400000)
G00 X94.0941 Y29.2107 
G01 Z-1.700000
G01 Z2.400000
(G00 Z2.400000)
G00 X94.0941 Y36.8307 
G01 Z-1.700000
G01 Z2.400000
(G00 Z2.400000)
G00 X99.4974 Y45.9809 
G01 Z-1.700000
G01 Z2.400000
(G00 Z2.400000)
G00 X107.1174 Y45.9809 
G01 Z-1.700000
G01 Z2.400000
(G00 Z2.400000)
G00 X14.6152 Y12.4656 
G01 Z-1.700000
G01 Z2.400000
(G00 Z2.400000)
G00 X14.4500 Y20.1800 
G01 Z-1.700000
G01 Z2.400000
(G00 Z2.400000)
G00 X21.8000 Y10.2500 
G01 Z-1.700000
G01 Z2.400000
(G00 Z2.400000)
G00 X24.3400 Y10.2500 
G01 Z-1.700000
G01 Z2.400000
(G00 Z2.400000)
G00 X26.8800 Y10.2500 
G01 Z-1.700000
G01 Z2.400000
(G00 Z2.400000)
G00 X29.4200 Y10.2500 
G01 Z-1.700000
G01 Z2.400000
(G00 Z2.400000)
G00 X21.7740 Y18.1892 
G01 Z-1.700000
G01 Z2.400000
(G00 Z2.400000)
G00 X24.3140 Y18.1892 
G01 Z-1.700000
G01 Z2.400000
(G00 Z2.400000)
G00 X26.8540 Y18.1892 
G01 Z-1.700000
G01 Z2.400000
(G00 Z2.400000)
G00 X29.3940 Y18.1892 
G01 Z-1.700000
G01 Z2.400000
(G00 Z2.400000)
G00 X64.1128 Y6.9357 
G01 Z-1.700000
G01 Z2.400000
(G00 Z2.400000)
G00 X69.1928 Y6.9357 
G01 Z-1.700000
G01 Z2.400000
(G00 Z2.400000)
G00 X66.6528 Y6.9357 
G01 Z-1.700000
G01 Z2.400000
(G00 Z2.400000)
G00 X90.1546 Y56.3455 
G01 Z-1.700000
G01 Z2.400000
(G00 Z2.400000)
G00 X90.1546 Y76.3455 
G01 Z-1.700000
G01 Z2.400000
(G00 Z2.400000)
G00 X67.1546 Y68.3455 
G01 Z-1.700000
G01 Z2.400000
(G00 Z2.400000)
G00 X59.1546 Y68.3455 
G01 Z-1.700000
G01 Z2.400000
(G00 Z2.400000)
G00 X31.8300 Y67.6500 
G01 Z-1.700000
G01 Z2.400000
(G00 Z2.400000)
G00 X31.8300 Y65.1100 
G01 Z-1.700000
G01 Z2.400000
(G00 Z2.400000)
G00 X31.8300 Y62.5700 
G01 Z-1.700000
G01 Z2.400000
(G00 Z2.400000)
G00 X31.8300 Y60.0300 
G01 Z-1.700000
G01 Z2.400000
(G00 Z2.400000)
G00 X31.8300 Y57.4900 
G01 Z-1.700000
G01 Z2.400000
(G00 Z2.400000)
G00 X31.8300 Y54.9500 
G01 Z-1.700000
G01 Z2.400000
(G00 Z2.400000)
G00 X31.8300 Y52.4100 
G01 Z-1.700000
G01 Z2.400000
(G00 Z2.400000)
G00 X31.8300 Y49.8700 
G01 Z-1.700000
G01 Z2.400000
(G00 Z2.400000)
G00 X31.8300 Y47.3300 
G01 Z-1.700000
G01 Z2.400000
(G00 Z2.400000)
G00 X31.8300 Y44.7900 
G01 Z-1.700000
G01 Z2.400000
(G00 Z2.400000)
G00 X31.8300 Y42.2500 
G01 Z-1.700000
G01 Z2.400000
(G00 Z2.400000)
G00 X31.8300 Y39.7100 
G01 Z-1.700000
G01 Z2.400000
(G00 Z2.400000)
G00 X31.8300 Y37.1700 
G01 Z-1.700000
G01 Z2.400000
(G00 Z2.400000)
G00 X31.8300 Y34.6300 
G01 Z-1.700000
G01 Z2.400000
(G00 Z2.400000)
G00 X31.8300 Y32.0900 
G01 Z-1.700000
G01 Z2.400000
(G00 Z2.400000)
G00 X7.0600 Y32.0900 
G01 Z-1.700000
G01 Z2.400000
(G00 Z2.400000)
G00 X7.0600 Y34.6300 
G01 Z-1.700000
G01 Z2.400000
(G00 Z2.400000)
G00 X7.0600 Y37.1700 
G01 Z-1.700000
G01 Z2.400000
(G00 Z2.400000)
G00 X7.0600 Y39.7100 
G01 Z-1.700000
G01 Z2.400000
(G00 Z2.400000)
G00 X7.0600 Y42.2500 
G01 Z-1.700000
G01 Z2.400000
(G00 Z2.400000)
G00 X7.0600 Y44.7900 
G01 Z-1.700000
G01 Z2.400000
(G00 Z2.400000)
G00 X7.0600 Y47.3300 
G01 Z-1.700000
G01 Z2.400000
(G00 Z2.400000)
G00 X7.0600 Y49.8700 
G01 Z-1.700000
G01 Z2.400000
(G00 Z2.400000)
G00 X7.0600 Y52.4100 
G01 Z-1.700000
G01 Z2.400000
(G00 Z2.400000)
G00 X7.0600 Y54.9500 
G01 Z-1.700000
G01 Z2.400000
(G00 Z2.400000)
G00 X7.0600 Y57.4900 
G01 Z-1.700000
G01 Z2.400000
(G00 Z2.400000)
G00 X7.0600 Y60.0300 
G01 Z-1.700000
G01 Z2.400000
(G00 Z2.400000)
G00 X7.0600 Y62.5700 
G01 Z-1.700000
G01 Z2.400000
(G00 Z2.400000)
G00 X7.0600 Y65.1100 
G01 Z-1.700000
G01 Z2.400000
(G00 Z2.400000)
G00 X7.0600 Y67.6500 
G01 Z-1.700000
G01 Z2.400000
(G00 Z2.400000)
G00 X106.2327 Y27.3018 
G01 Z-1.700000
G01 Z2.400000
(G00 Z2.400000)
G00 X106.2327 Y21.7768 
G01 Z-1.700000
G01 Z2.400000
(G00 Z2.400000)
G00 X106.2327 Y16.2518 
G01 Z-1.700000
G01 Z2.400000
G00 Z2.4000 
G00 X87.4704 Y57.6835 
G01 Z-0.1000 F50.00 
G01 X95.1247 Y65.3379 F100.00 
G01 X101.9389 Y65.3379 
G01 X109.1403 Y58.1364 
G01 X109.1403 Y50.9272 
G01 X106.6722 Y48.4590 
G01 X106.5989 Y48.3322 
G01 X106.5610 Y48.1907 
G01 X106.5610 Y47.2890 
G01 X105.7990 Y46.5270 
G01 X105.7990 Y45.4348 
G01 X106.5610 Y44.6728 
G01 X106.5610 Y35.8996 
G01 X106.5989 Y35.7581 
G01 X106.6722 Y35.6313 
G01 X106.7758 Y35.5277 
G01 X111.9748 Y30.3286 
G01 X111.9748 Y21.7617 
G01 X107.4064 Y17.1932 
G01 X107.3790 Y17.2309 
G01 X107.2118 Y17.3981 
G01 X107.0204 Y17.5372 
G01 X106.8096 Y17.6446 
G01 X106.5846 Y17.7177 
G01 X106.3510 Y17.7547 
G01 X106.1144 Y17.7547 
G01 X105.8808 Y17.7177 
G01 X105.6558 Y17.6446 
G01 X105.4450 Y17.5372 
G01 X105.2536 Y17.3981 
G01 X105.0863 Y17.2309 
G01 X104.9473 Y17.0395 
G01 X104.8399 Y16.8287 
G01 X104.7668 Y16.6037 
G01 X104.7298 Y16.3701 
G01 X104.7298 Y16.1335 
G01 X104.7668 Y15.8999 
G01 X104.8399 Y15.6749 
G01 X104.9473 Y15.4641 
G01 X105.0863 Y15.2727 
G01 X105.2536 Y15.1054 
G01 X105.4450 Y14.9664 
G01 X105.6558 Y14.8590 
G01 X105.8808 Y14.7859 
G01 X106.1144 Y14.7489 
G01 X106.3510 Y14.7489 
G01 X106.5846 Y14.7859 
G01 X106.8096 Y14.8590 
G01 X107.0204 Y14.9664 
G01 X107.2118 Y15.1054 
G01 X107.3790 Y15.2727 
G01 X107.5181 Y15.4641 
G01 X107.6255 Y15.6749 
G01 X107.6986 Y15.8999 
G01 X107.7008 Y15.9139 
G01 X112.9765 Y21.1896 
G01 X113.0497 Y21.3165 
G01 X113.0876 Y21.4580 
G01 X113.0876 Y30.6323 
G01 X113.0497 Y30.7738 
G01 X112.9765 Y30.9007 
G01 X107.6738 Y36.2034 
G01 X107.6738 Y44.6728 
G01 X108.4358 Y45.4348 
G01 X108.4358 Y46.5270 
G01 X107.6738 Y47.2890 
G01 X107.6738 Y47.8869 
G01 X110.0384 Y50.2515 
G01 X110.1420 Y50.3551 
G01 X110.2152 Y50.4820 
G01 X110.2531 Y50.6235 
G01 X110.2531 Y58.4401 
G01 X110.2152 Y58.5816 
G01 X110.1420 Y58.7085 
G01 X110.0384 Y58.8121 
G01 X102.5110 Y66.3395 
G01 X102.3841 Y66.4127 
G01 X102.2426 Y66.4507 
G01 X94.8210 Y66.4507 
G01 X94.6795 Y66.4127 
G01 X94.5526 Y66.3395 
G01 X94.4490 Y66.2359 
G01 X86.4688 Y58.2556 
G01 X86.3955 Y58.1288 
G01 X86.3576 Y57.9872 
G01 X86.3576 Y27.1445 
G01 X84.2829 Y25.0698 
G01 X83.8619 Y25.0698 
G01 X83.7691 Y25.1626 
G01 X83.6322 Y25.2541 
G01 X83.4801 Y25.3171 
G01 X83.3186 Y25.3492 
G01 X81.8332 Y25.3492 
G01 X81.6717 Y25.3171 
G01 X81.5196 Y25.2541 
G01 X81.3827 Y25.1626 
G01 X81.2663 Y25.0462 
G01 X81.1748 Y24.9093 
G01 X81.1118 Y24.7572 
G01 X81.0797 Y24.5957 
G01 X81.0797 Y24.4311 
G01 X81.1118 Y24.2696 
G01 X81.1748 Y24.1175 
G01 X81.2663 Y23.9806 
G01 X81.3827 Y23.8642 
G01 X81.5196 Y23.7727 
G01 X81.6717 Y23.7097 
G01 X81.8332 Y23.6776 
G01 X83.3186 Y23.6776 
G01 X83.4801 Y23.7097 
G01 X83.6322 Y23.7727 
G01 X83.7691 Y23.8642 
G01 X83.8619 Y23.9570 
G01 X84.5866 Y23.9570 
G01 X84.7281 Y23.9949 
G01 X84.8550 Y24.0681 
G01 X87.2556 Y26.4688 
G01 X87.3592 Y26.5724 
G01 X87.4325 Y26.6992 
G01 X87.4704 Y26.8407 
G01 X87.4704 Y34.7159 
G01 X87.4704 Y57.6835 
G00 Z2.4000 
G00 X70.0466 Y38.7327 
G01 Z-0.1000 F50.00 
G01 X67.6539 Y36.3400 F100.00 
G01 X62.4712 Y36.3400 
G01 X60.4533 Y38.3579 
G01 X60.3265 Y38.4311 
G01 X60.1849 Y38.4690 
G01 X55.3989 Y38.4690 
G01 X54.6369 Y39.2310 
G01 X53.5447 Y39.2310 
G01 X52.7724 Y38.4587 
G01 X52.7724 Y37.3665 
G01 X53.5447 Y36.5942 
G01 X54.6369 Y36.5942 
G01 X55.3989 Y37.3562 
G01 X59.8812 Y37.3562 
G01 X61.8991 Y35.3384 
G01 X62.0260 Y35.2651 
G01 X62.1675 Y35.2272 
G01 X67.9576 Y35.2272 
G01 X68.0992 Y35.2651 
G01 X68.2260 Y35.3384 
G01 X71.0482 Y38.1606 
G01 X71.1215 Y38.2874 
G01 X71.1594 Y38.4290 
G01 X71.1594 Y39.3482 
G01 X73.7948 Y41.9836 
G01 X74.1844 Y41.9836 
G01 X74.2772 Y41.8908 
G01 X74.4141 Y41.7993 
G01 X74.5662 Y41.7363 
G01 X74.7277 Y41.7042 
G01 X76.2131 Y41.7042 
G01 X76.3746 Y41.7363 
G01 X76.5267 Y41.7993 
G01 X76.6636 Y41.8908 
G01 X76.7800 Y42.0072 
G01 X76.8715 Y42.1441 
G01 X76.9345 Y42.2962 
G01 X76.9666 Y42.4577 
G01 X76.9666 Y42.6223 
G01 X76.9345 Y42.7838 
G01 X76.8715 Y42.9359 
G01 X76.7800 Y43.0728 
G01 X76.6636 Y43.1892 
G01 X76.5267 Y43.2807 
G01 X76.3746 Y43.3437 
G01 X76.2131 Y43.3758 
G01 X74.7277 Y43.3758 
G01 X74.5662 Y43.3437 
G01 X74.4141 Y43.2807 
G01 X74.2772 Y43.1892 
G01 X74.1844 Y43.0964 
G01 X73.4911 Y43.0964 
G01 X73.3496 Y43.0585 
G01 X73.2227 Y42.9852 
G01 X70.1578 Y39.9203 
G01 X70.0845 Y39.7934 
G01 X70.0466 Y39.6519 
G01 X70.0466 Y39.5054 
G01 X70.0466 Y38.7327 
G00 Z2.4000 
G00 X66.3140 Y66.4230 
G01 Z-0.1000 F50.00 
G01 X66.3188 Y66.4594 F100.00 
G01 X66.3140 Y66.4959 
G01 X66.3140 Y66.5327 
G01 X66.3045 Y66.5682 
G01 X66.2997 Y66.6047 
G01 X66.2856 Y66.6387 
G01 X66.2761 Y66.6742 
G01 X66.2577 Y66.7060 
G01 X66.2436 Y66.7400 
G01 X66.2212 Y66.7692 
G01 X66.2028 Y66.8011 
G01 X66.1768 Y66.8271 
G01 X66.1544 Y66.8563 
G01 X66.1252 Y66.8786 
G01 X66.0992 Y66.9047 
G01 X66.0674 Y66.9230 
G01 X66.0382 Y66.9454 
G01 X66.0042 Y66.9595 
G01 X65.9724 Y66.9779 
G01 X65.9368 Y66.9874 
G01 X65.9290 Y66.9906 
G01 X65.7998 Y67.1199 
G01 X65.7298 Y67.2888 
G01 X65.7298 Y69.4021 
G01 X65.7998 Y69.5710 
G01 X65.9290 Y69.7003 
G01 X65.9368 Y69.7035 
G01 X65.9724 Y69.7130 
G01 X66.0042 Y69.7314 
G01 X66.0382 Y69.7455 
G01 X66.0674 Y69.7679 
G01 X66.0992 Y69.7863 
G01 X66.1252 Y69.8123 
G01 X66.1544 Y69.8347 
G01 X66.1768 Y69.8639 
G01 X66.2028 Y69.8899 
G01 X66.2212 Y69.9217 
G01 X66.2436 Y69.9509 
G01 X66.2577 Y69.9849 
G01 X66.2761 Y70.0168 
G01 X66.2856 Y70.0523 
G01 X66.2997 Y70.0863 
G01 X66.3045 Y70.1227 
G01 X66.3140 Y70.1583 
G01 X66.3140 Y70.1951 
G01 X66.3188 Y70.2315 
G01 X66.3140 Y70.2680 
G01 X66.3140 Y70.3400 
G01 X66.2761 Y70.4815 
G01 X66.2028 Y70.6084 
G01 X66.0992 Y70.7120 
G01 X65.4363 Y71.3749 
G01 X65.3094 Y71.4482 
G01 X65.1679 Y71.4861 
G01 X58.9818 Y71.4861 
G01 X58.6729 Y71.6140 
G01 X56.4447 Y73.8422 
G01 X56.3178 Y73.9155 
G01 X56.1763 Y73.9534 
G01 X48.2795 Y73.9534 
G01 X48.0743 Y74.0384 
G01 X48.0425 Y74.0568 
G01 X48.0070 Y74.0663 
G01 X47.9730 Y74.0804 
G01 X47.9365 Y74.0852 
G01 X47.9010 Y74.0947 
G01 X47.8642 Y74.0947 
G01 X47.8277 Y74.0995 
G01 X47.7913 Y74.0947 
G01 X42.4894 Y74.0947 
G01 X42.3479 Y74.0568 
G01 X42.2210 Y73.9835 
G01 X42.1174 Y73.8799 
G01 X41.3261 Y73.0886 
G01 X41.0631 Y72.8257 
G01 X40.7542 Y72.6977 
G01 X36.4790 Y72.6977 
G01 X36.1700 Y72.8257 
G01 X35.9071 Y73.0886 
G01 X35.8035 Y73.1922 
G01 X35.0185 Y73.9772 
G01 X34.9961 Y74.0063 
G01 X34.9670 Y74.0287 
G01 X34.7283 Y74.2674 
G01 X34.6014 Y74.3407 
G01 X34.4599 Y74.3786 
G01 X34.1223 Y74.3786 
G01 X34.0859 Y74.3834 
G01 X34.0494 Y74.3786 
G01 X28.2568 Y74.3786 
G01 X28.2203 Y74.3834 
G01 X28.1839 Y74.3786 
G01 X27.7489 Y74.3786 
G01 X27.6074 Y74.3407 
G01 X27.4806 Y74.2674 
G01 X27.3770 Y74.1638 
G01 X22.5005 Y69.2874 
G01 X22.4935 Y69.2845 
G01 X22.4643 Y69.2621 
G01 X22.4325 Y69.2437 
G01 X22.4065 Y69.2177 
G01 X22.3773 Y69.1953 
G01 X22.3549 Y69.1661 
G01 X20.1262 Y66.9374 
G01 X19.8172 Y66.8094 
G01 X8.3916 Y66.8094 
G01 X8.2501 Y66.7715 
G01 X8.1232 Y66.6982 
G01 X8.0196 Y66.5946 
G01 X7.9533 Y66.5284 
G01 X7.9295 Y66.5110 
G01 X7.9017 Y66.4768 
G01 X7.8706 Y66.4456 
G01 X7.8558 Y66.4201 
G01 X7.8373 Y66.3972 
G01 X7.8194 Y66.3569 
G01 X7.7973 Y66.3187 
G01 X7.7897 Y66.2903 
G01 X7.7777 Y66.2633 
G01 X7.7708 Y66.2198 
G01 X7.7594 Y66.1772 
G01 X7.7594 Y66.1477 
G01 X7.7548 Y66.1186 
G01 X7.7594 Y66.0748 
G01 X7.7594 Y66.0307 
G01 X7.7657 Y66.0071 
G01 X7.6578 Y66.0855 
G01 X7.4978 Y66.1670 
G01 X7.3271 Y66.2225 
G01 X7.1498 Y66.2506 
G01 X6.9702 Y66.2506 
G01 X6.7929 Y66.2225 
G01 X6.6222 Y66.1670 
G01 X6.4622 Y66.0855 
G01 X6.3169 Y65.9800 
G01 X6.1900 Y65.8530 
G01 X6.0845 Y65.7078 
G01 X6.0496 Y65.6393 
G01 X6.0440 Y65.6381 
G01 X6.0320 Y65.6320 
G01 X6.0191 Y65.6285 
G01 X5.9671 Y65.5985 
G01 X5.9137 Y65.5710 
G01 X5.9038 Y65.5620 
G01 X5.8922 Y65.5552 
G01 X5.8497 Y65.5128 
G01 X5.8053 Y65.4724 
G01 X5.7980 Y65.4611 
G01 X5.7886 Y65.4516 
G01 X5.7586 Y65.3997 
G01 X5.7261 Y65.3492 
G01 X5.7220 Y65.3364 
G01 X5.7153 Y65.3247 
G01 X5.6998 Y65.2668 
G01 X5.6815 Y65.2096 
G01 X5.6809 Y65.1962 
G01 X5.6774 Y65.1832 
G01 X5.6774 Y65.1232 
G01 X5.6745 Y65.0633 
G01 X5.6774 Y65.0502 
G01 X5.6774 Y65.0367 
G01 X5.6819 Y65.0200 
G01 X5.6789 Y65.0202 
G01 X5.6646 Y65.0240 
G01 X5.6060 Y65.0240 
G01 X5.5474 Y65.0270 
G01 X5.5329 Y65.0240 
G01 X5.5181 Y65.0240 
G01 X5.4615 Y65.0088 
G01 X5.4041 Y64.9966 
G01 X5.3909 Y64.9899 
G01 X5.3766 Y64.9861 
G01 X5.3258 Y64.9567 
G01 X5.2735 Y64.9301 
G01 X5.2625 Y64.9202 
G01 X5.2497 Y64.9128 
G01 X5.2082 Y64.8713 
G01 X5.1646 Y64.8321 
G01 X5.1566 Y64.8197 
G01 X4.5587 Y64.2218 
G01 X4.4855 Y64.0949 
G01 X4.4475 Y63.9534 
G01 X4.4475 Y27.8985 
G01 X4.4855 Y27.7569 
G01 X4.5587 Y27.6301 
G01 X4.6623 Y27.5265 
G01 X6.1809 Y26.0078 
G01 X6.3089 Y25.6989 
G01 X6.3089 Y23.4710 
G01 X6.3041 Y23.4345 
G01 X6.3089 Y23.3980 
G01 X6.3089 Y23.3613 
G01 X6.3184 Y23.3257 
G01 X6.3232 Y23.2892 
G01 X6.3373 Y23.2553 
G01 X6.3468 Y23.2197 
G01 X6.3652 Y23.1879 
G01 X6.3793 Y23.1539 
G01 X6.4017 Y23.1247 
G01 X6.4201 Y23.0929 
G01 X6.4461 Y23.0669 
G01 X6.4685 Y23.0377 
G01 X6.4977 Y23.0153 
G01 X6.5237 Y22.9893 
G01 X6.5555 Y22.9709 
G01 X6.5757 Y22.9554 
G01 X7.1338 Y22.3973 
G01 X7.4329 Y21.6753 
G01 X7.4329 Y17.8838 
G01 X7.1338 Y17.1618 
G01 X6.5811 Y16.6091 
G01 X6.2784 Y16.4837 
G01 X6.1430 Y16.4277 
G01 X6.0889 Y16.3862 
G01 X6.0268 Y16.3385 
G01 X5.9376 Y16.2223 
G01 X5.8958 Y16.1214 
G01 X5.8816 Y16.0869 
G01 X5.8702 Y16.0006 
G01 X5.8624 Y15.9417 
G01 X5.8709 Y15.8775 
G01 X5.8815 Y15.7964 
G01 X5.9376 Y15.6611 
G01 X5.9729 Y15.6151 
G01 X5.8679 Y15.6433 
G01 X5.6496 Y15.6720 
G01 X5.4293 Y15.6720 
G01 X5.2109 Y15.6433 
G01 X4.9981 Y15.5862 
G01 X4.7946 Y15.5019 
G01 X4.6039 Y15.3918 
G01 X4.4291 Y15.2577 
G01 X4.2734 Y15.1020 
G01 X4.1393 Y14.9272 
G01 X4.0291 Y14.7364 
G01 X3.9448 Y14.5329 
G01 X3.8878 Y14.3202 
G01 X3.8591 Y14.1018 
G01 X3.8591 Y10.8716 
G01 X3.8878 Y10.6532 
G01 X3.9448 Y10.4405 
G01 X4.0291 Y10.2370 
G01 X4.1393 Y10.0462 
G01 X4.2734 Y9.8714 
G01 X4.4291 Y9.7157 
G01 X4.6039 Y9.5816 
G01 X4.7946 Y9.4715 
G01 X4.8624 Y9.4434 
G01 X4.8624 Y9.4396 
G01 X4.8730 Y9.4001 
G01 X4.9003 Y9.2981 
G01 X4.9735 Y9.1713 
G01 X5.3184 Y8.8263 
G01 X5.3704 Y8.7963 
G01 X5.4453 Y8.7531 
G01 X5.5000 Y8.7385 
G01 X5.5146 Y8.6838 
G01 X5.5326 Y8.6526 
G01 X5.5878 Y8.5570 
G01 X5.6914 Y8.4534 
G01 X6.2313 Y7.9134 
G01 X6.3593 Y7.6045 
G01 X6.3593 Y7.2278 
G01 X6.3972 Y7.0863 
G01 X6.4705 Y6.9594 
G01 X6.5741 Y6.8558 
G01 X7.1213 Y6.3085 
G01 X7.1213 Y4.9809 
G01 X6.1825 Y4.0421 
G01 X4.8549 Y4.0421 
G01 X3.9161 Y4.9809 
G01 X3.9161 Y6.3085 
G01 X4.2422 Y6.6346 
G01 X4.2662 Y6.6586 
G01 X4.3458 Y6.7382 
G01 X4.4190 Y6.8651 
G01 X4.4569 Y7.0066 
G01 X4.4569 Y7.1531 
G01 X4.4190 Y7.2946 
G01 X4.3871 Y7.3498 
G01 X4.3458 Y7.4215 
G01 X4.2527 Y7.5145 
G01 X4.2422 Y7.5251 
G01 X2.3058 Y9.4614 
G01 X2.1779 Y9.7703 
G01 X2.1779 Y17.4969 
G01 X2.3058 Y17.8059 
G01 X2.6724 Y18.1724 
G01 X3.3926 Y18.8926 
G01 X3.4658 Y19.0195 
G01 X3.5038 Y19.1610 
G01 X3.5038 Y21.6753 
G01 X3.8028 Y22.3973 
G01 X4.3609 Y22.9554 
G01 X4.3811 Y22.9709 
G01 X4.4130 Y22.9893 
G01 X4.4389 Y23.0153 
G01 X4.4681 Y23.0377 
G01 X4.4905 Y23.0669 
G01 X4.5165 Y23.0929 
G01 X4.5349 Y23.1247 
G01 X4.5573 Y23.1539 
G01 X4.5714 Y23.1879 
G01 X4.5898 Y23.2197 
G01 X4.5993 Y23.2553 
G01 X4.6134 Y23.2892 
G01 X4.6182 Y23.3257 
G01 X4.6277 Y23.3613 
G01 X4.6277 Y23.3980 
G01 X4.6325 Y23.4345 
G01 X4.6277 Y23.4710 
G01 X4.6277 Y25.0263 
G01 X4.5898 Y25.1678 
G01 X4.5165 Y25.2947 
G01 X4.4130 Y25.3983 
G01 X2.8943 Y26.9169 
G01 X2.7663 Y27.2258 
G01 X2.7663 Y64.6260 
G01 X2.8943 Y64.9349 
G01 X3.2608 Y65.3015 
G01 X5.5240 Y67.5647 
G01 X5.5973 Y67.6915 
G01 X5.6352 Y67.8330 
G01 X5.6352 Y67.9334 
G01 X5.8521 Y68.4571 
G01 X6.2529 Y68.8579 
G01 X6.7766 Y69.0748 
G01 X7.3434 Y69.0748 
G01 X7.8671 Y68.8579 
G01 X8.1232 Y68.6018 
G01 X8.2463 Y68.5307 
G01 X8.2501 Y68.5285 
G01 X8.3916 Y68.4906 
G01 X19.1446 Y68.4906 
G01 X19.2861 Y68.5285 
G01 X19.4130 Y68.6018 
G01 X19.5166 Y68.7054 
G01 X21.2609 Y70.4497 
G01 X21.6539 Y70.8427 
G01 X21.9358 Y71.1246 
G01 X21.9428 Y71.1275 
G01 X21.9720 Y71.1499 
G01 X22.0038 Y71.1683 
G01 X22.0298 Y71.1943 
G01 X22.0590 Y71.2167 
G01 X22.0814 Y71.2459 
G01 X26.5044 Y75.6689 
G01 X26.7674 Y75.9318 
G01 X27.0763 Y76.0598 
G01 X35.1325 Y76.0598 
G01 X35.4415 Y75.9318 
G01 X35.7044 Y75.6689 
G01 X35.8080 Y75.5653 
G01 X36.8832 Y74.4901 
G01 X37.0101 Y74.4168 
G01 X37.1516 Y74.3789 
G01 X40.0816 Y74.3789 
G01 X40.2231 Y74.4168 
G01 X40.3500 Y74.4901 
G01 X40.4536 Y74.5937 
G01 X41.2449 Y75.3850 
G01 X41.5078 Y75.6479 
G01 X41.8168 Y75.7759 
G01 X48.4726 Y75.7759 
G01 X48.6778 Y75.6909 
G01 X48.7097 Y75.6725 
G01 X48.7452 Y75.6630 
G01 X48.7792 Y75.6489 
G01 X48.8157 Y75.6441 
G01 X48.8512 Y75.6346 
G01 X48.8880 Y75.6346 
G01 X48.9244 Y75.6298 
G01 X48.9609 Y75.6346 
G01 X56.8489 Y75.6346 
G01 X57.1579 Y75.5066 
G01 X57.5244 Y75.1401 
G01 X59.2825 Y73.3820 
G01 X59.3861 Y73.2784 
G01 X59.5129 Y73.2052 
G01 X59.6545 Y73.1673 
G01 X65.8405 Y73.1673 
G01 X66.1495 Y73.0393 
G01 X67.8672 Y71.3216 
G01 X67.9952 Y71.0126 
G01 X67.9952 Y70.2680 
G01 X67.9904 Y70.2315 
G01 X67.9952 Y70.1951 
G01 X67.9952 Y70.1583 
G01 X68.0047 Y70.1227 
G01 X68.0095 Y70.0863 
G01 X68.0236 Y70.0523 
G01 X68.0331 Y70.0168 
G01 X68.0515 Y69.9849 
G01 X68.0656 Y69.9509 
G01 X68.0880 Y69.9217 
G01 X68.1064 Y69.8899 
G01 X68.1324 Y69.8639 
G01 X68.1548 Y69.8347 
G01 X68.1839 Y69.8123 
G01 X68.2099 Y69.7863 
G01 X68.2418 Y69.7679 
G01 X68.2710 Y69.7455 
G01 X68.3050 Y69.7314 
G01 X68.3368 Y69.7130 
G01 X68.3723 Y69.7035 
G01 X68.3801 Y69.7003 
G01 X68.5094 Y69.5710 
G01 X68.5794 Y69.4021 
G01 X68.5794 Y67.2888 
G01 X68.5094 Y67.1199 
G01 X68.3801 Y66.9906 
G01 X68.3723 Y66.9874 
G01 X68.3368 Y66.9779 
G01 X68.3050 Y66.9595 
G01 X68.2710 Y66.9454 
G01 X68.2418 Y66.9230 
G01 X68.2099 Y66.9047 
G01 X68.1839 Y66.8786 
G01 X68.1548 Y66.8563 
G01 X68.1324 Y66.8271 
G01 X68.1064 Y66.8011 
G01 X68.0880 Y66.7692 
G01 X68.0656 Y66.7400 
G01 X68.0515 Y66.7060 
G01 X68.0331 Y66.6742 
G01 X68.0236 Y66.6387 
G01 X68.0095 Y66.6047 
G01 X68.0047 Y66.5682 
G01 X67.9952 Y66.5327 
G01 X67.9952 Y66.4959 
G01 X67.9904 Y66.4594 
G01 X67.9952 Y66.4230 
G01 X67.9952 Y61.9874 
G01 X67.8672 Y61.6784 
G01 X67.5007 Y61.3119 
G01 X63.9518 Y57.7630 
G01 X63.8785 Y57.6361 
G01 X63.8406 Y57.4946 
G01 X63.8406 Y43.4029 
G01 X63.8358 Y43.3664 
G01 X63.8406 Y43.3300 
G01 X63.8406 Y43.2932 
G01 X63.8501 Y43.2576 
G01 X63.8549 Y43.2212 
G01 X63.8690 Y43.1872 
G01 X63.8785 Y43.1517 
G01 X63.8969 Y43.1198 
G01 X63.9110 Y43.0858 
G01 X63.9334 Y43.0566 
G01 X63.9518 Y43.0248 
G01 X63.9778 Y42.9988 
G01 X64.0002 Y42.9696 
G01 X64.0294 Y42.9472 
G01 X64.0554 Y42.9212 
G01 X64.0872 Y42.9028 
G01 X64.1164 Y42.8804 
G01 X64.1504 Y42.8663 
G01 X64.1822 Y42.8479 
G01 X64.2178 Y42.8384 
G01 X64.2518 Y42.8243 
G01 X64.2882 Y42.8195 
G01 X64.3237 Y42.8100 
G01 X64.3605 Y42.8100 
G01 X64.3970 Y42.8052 
G01 X64.4335 Y42.8100 
G01 X64.4702 Y42.8100 
G01 X64.5058 Y42.8195 
G01 X64.5423 Y42.8244 
G01 X64.5762 Y42.8384 
G01 X64.6118 Y42.8479 
G01 X64.6436 Y42.8663 
G01 X64.6776 Y42.8804 
G01 X64.7068 Y42.9028 
G01 X64.7386 Y42.9212 
G01 X64.7646 Y42.9472 
G01 X64.7938 Y42.9696 
G01 X64.8162 Y42.9988 
G01 X64.8422 Y43.0248 
G01 X64.8606 Y43.0566 
G01 X64.8830 Y43.0858 
G01 X64.8971 Y43.1198 
G01 X64.9155 Y43.1517 
G01 X64.9223 Y43.1770 
G01 X65.2348 Y43.4895 
G01 X65.6464 Y43.6600 
G01 X67.4128 Y43.6600 
G01 X67.8244 Y43.4895 
G01 X68.1395 Y43.1744 
G01 X68.3100 Y42.7628 
G01 X68.3100 Y42.3172 
G01 X68.1395 Y41.9056 
G01 X67.9492 Y41.7152 
G01 X67.8456 Y41.6116 
G01 X67.7723 Y41.4848 
G01 X67.7450 Y41.3828 
G01 X67.7344 Y41.3432 
G01 X67.7344 Y41.1967 
G01 X67.7707 Y41.0613 
G01 X67.7723 Y41.0552 
G01 X67.7739 Y41.0524 
G01 X67.8456 Y40.9284 
G01 X68.1395 Y40.6344 
G01 X68.3100 Y40.2228 
G01 X68.3100 Y39.7772 
G01 X68.1395 Y39.3656 
G01 X67.9492 Y39.1752 
G01 X67.9301 Y39.1562 
G01 X67.8456 Y39.0716 
G01 X67.7723 Y38.9448 
G01 X67.7344 Y38.8033 
G01 X67.7344 Y38.6568 
G01 X67.7723 Y38.5152 
G01 X67.8456 Y38.3884 
G01 X67.9491 Y38.2848 
G01 X68.1277 Y38.1062 
G01 X68.2297 Y38.0042 
G01 X68.3582 Y37.9293 
G01 X68.4602 Y37.9020 
G01 X68.4997 Y37.8914 
G01 X68.6462 Y37.8914 
G01 X68.7047 Y37.9071 
G01 X68.7877 Y37.9293 
G01 X68.9146 Y38.0026 
G01 X69.6512 Y38.7392 
G01 X69.7245 Y38.8661 
G01 X69.7624 Y39.0076 
G01 X69.7624 Y39.7459 
G01 X69.8904 Y40.0548 
G01 X73.0882 Y43.2526 
G01 X73.3971 Y43.3806 
G01 X73.7630 Y43.3806 
G01 X73.8358 Y43.3806 
G01 X73.9095 Y43.3806 
G01 X73.9767 Y43.3986 
G01 X74.0510 Y43.4185 
G01 X74.1255 Y43.4615 
G01 X74.1697 Y43.4871 
G01 X74.5872 Y43.6600 
G01 X76.3536 Y43.6600 
G01 X76.7652 Y43.4895 
G01 X77.0803 Y43.1744 
G01 X77.2508 Y42.7628 
G01 X77.2508 Y42.3172 
G01 X77.0803 Y41.9056 
G01 X76.7864 Y41.6116 
G01 X76.7131 Y41.4848 
G01 X76.6752 Y41.3433 
G01 X76.6752 Y41.1967 
G01 X76.6849 Y41.1604 
G01 X76.7131 Y41.0552 
G01 X76.7863 Y40.9284 
G01 X76.8899 Y40.8248 
G01 X77.0803 Y40.6344 
G01 X77.2508 Y40.2228 
G01 X77.2508 Y39.7772 
G01 X77.0803 Y39.3656 
G01 X76.7864 Y39.0716 
G01 X76.7131 Y38.9448 
G01 X76.6752 Y38.8033 
G01 X76.6752 Y38.6567 
G01 X76.6849 Y38.6204 
G01 X76.7131 Y38.5152 
G01 X76.7863 Y38.3884 
G01 X76.8899 Y38.2848 
G01 X77.0803 Y38.0944 
G01 X77.2508 Y37.6828 
G01 X77.2508 Y37.2372 
G01 X77.0803 Y36.8256 
G01 X76.7652 Y36.5105 
G01 X76.3536 Y36.3400 
G01 X74.5872 Y36.3400 
G01 X74.1756 Y36.5105 
G01 X73.8605 Y36.8256 
G01 X73.8351 Y36.8870 
G01 X73.7886 Y36.9475 
G01 X73.7459 Y37.0032 
G01 X73.6934 Y37.0435 
G01 X73.6297 Y37.0924 
G01 X73.6144 Y37.0987 
G01 X73.4943 Y37.1485 
G01 X73.3491 Y37.1676 
G01 X73.3124 Y37.1628 
G01 X73.2038 Y37.1485 
G01 X73.0685 Y37.0924 
G01 X73.0079 Y37.0460 
G01 X72.9522 Y37.0032 
G01 X72.9120 Y36.9507 
G01 X72.8630 Y36.8870 
G01 X72.8556 Y36.8689 
G01 X72.8070 Y36.7516 
G01 X72.7126 Y36.5238 
G01 X72.3461 Y36.1573 
G01 X69.6229 Y33.4341 
G01 X69.3140 Y33.3062 
G01 X66.2409 Y33.3062 
G01 X66.0994 Y33.2682 
G01 X65.9725 Y33.1950 
G01 X65.8689 Y33.0914 
G01 X65.7957 Y32.9645 
G01 X65.7577 Y32.8230 
G01 X65.7577 Y32.6822 
G01 X65.5408 Y32.1585 
G01 X65.1400 Y31.7577 
G01 X64.6164 Y31.5408 
G01 X64.0495 Y31.5408 
G01 X64.0392 Y31.5451 
G01 X64.0027 Y31.5499 
G01 X63.9672 Y31.5594 
G01 X63.9304 Y31.5594 
G01 X63.8940 Y31.5642 
G01 X63.8575 Y31.5594 
G01 X63.8207 Y31.5594 
G01 X63.7852 Y31.5499 
G01 X63.7487 Y31.5451 
G01 X63.7147 Y31.5310 
G01 X63.6792 Y31.5215 
G01 X63.6474 Y31.5031 
G01 X63.6134 Y31.4890 
G01 X63.5842 Y31.4666 
G01 X63.5523 Y31.4482 
G01 X63.5263 Y31.4222 
G01 X63.4971 Y31.3998 
G01 X63.4747 Y31.3706 
G01 X63.4487 Y31.3446 
G01 X63.4303 Y31.3128 
G01 X63.4079 Y31.2836 
G01 X63.3939 Y31.2496 
G01 X63.3755 Y31.2178 
G01 X63.3660 Y31.1822 
G01 X63.3519 Y31.1483 
G01 X63.3471 Y31.1118 
G01 X63.3376 Y31.0762 
G01 X63.3376 Y31.0395 
G01 X63.3328 Y31.0030 
G01 X63.3376 Y30.9665 
G01 X63.3376 Y30.8394 
G01 X63.1206 Y30.3157 
G01 X62.7198 Y29.9149 
G01 X62.1962 Y29.6980 
G01 X61.6293 Y29.6980 
G01 X61.1057 Y29.9149 
G01 X60.7049 Y30.3157 
G01 X60.4880 Y30.8394 
G01 X60.4880 Y31.4062 
G01 X60.7049 Y31.9299 
G01 X61.1057 Y32.3307 
G01 X61.6293 Y32.5476 
G01 X61.9915 Y32.5476 
G01 X62.1331 Y32.5855 
G01 X62.2561 Y32.6566 
G01 X62.2599 Y32.6588 
G01 X62.2651 Y32.6639 
G01 X62.8451 Y33.2439 
G01 X62.8743 Y33.2663 
G01 X62.8967 Y33.2955 
G01 X62.9227 Y33.3215 
G01 X62.9411 Y33.3534 
G01 X62.9635 Y33.3825 
G01 X62.9775 Y33.4165 
G01 X62.9959 Y33.4484 
G01 X63.0054 Y33.4839 
G01 X63.1251 Y33.7727 
G01 X63.3973 Y34.0450 
G01 X63.4684 Y34.1680 
G01 X63.4706 Y34.1718 
G01 X63.5085 Y34.3133 
G01 X63.5085 Y34.4599 
G01 X63.4988 Y34.4962 
G01 X63.4706 Y34.6014 
G01 X63.3974 Y34.7282 
G01 X63.2938 Y34.8318 
G01 X63.1707 Y34.9029 
G01 X63.1669 Y34.9051 
G01 X63.0254 Y34.9430 
G01 X62.0735 Y34.9430 
G01 X61.7646 Y35.0710 
G01 X61.3981 Y35.4375 
G01 X59.8747 Y36.9609 
G01 X59.7478 Y37.0341 
G01 X59.6063 Y37.0720 
G01 X55.6738 Y37.0720 
G01 X55.5323 Y37.0341 
G01 X55.4054 Y36.9609 
G01 X55.3018 Y36.8573 
G01 X54.7546 Y36.3100 
G01 X53.4270 Y36.3100 
G01 X52.4882 Y37.2488 
G01 X52.4882 Y38.5765 
G01 X53.4270 Y39.5152 
G01 X54.7546 Y39.5152 
G01 X55.4054 Y38.8644 
G01 X55.5323 Y38.7912 
G01 X55.6738 Y38.7532 
G01 X57.2008 Y38.7532 
G01 X57.3423 Y38.7912 
G01 X57.4692 Y38.8644 
G01 X57.5728 Y38.9680 
G01 X57.6460 Y39.0949 
G01 X57.6839 Y39.2364 
G01 X57.6839 Y39.3829 
G01 X57.6460 Y39.5244 
G01 X57.5728 Y39.6513 
G01 X57.4692 Y39.7549 
G01 X55.9532 Y41.2708 
G01 X55.8263 Y41.3441 
G01 X55.6848 Y41.3820 
G01 X55.5383 Y41.3820 
G01 X55.5106 Y41.3745 
G01 X55.5722 Y41.4362 
G01 X55.5722 Y42.5284 
G01 X54.7999 Y43.3007 
G01 X53.7077 Y43.3007 
G01 X53.0503 Y42.6433 
G01 X53.0577 Y42.6710 
G01 X53.0577 Y42.7435 
G01 X53.0578 Y42.8175 
G01 X53.0394 Y42.8860 
G01 X53.0198 Y42.9590 
G01 X52.9936 Y43.0045 
G01 X52.9466 Y43.0859 
G01 X52.9126 Y43.1199 
G01 X52.8430 Y43.1895 
G01 X52.7795 Y43.2262 
G01 X52.7161 Y43.2628 
G01 X52.6595 Y43.2780 
G01 X52.5746 Y43.3007 
G01 X52.5022 Y43.3007 
G01 X52.4281 Y43.3007 
G01 X49.2982 Y43.3007 
G01 X49.1567 Y43.2628 
G01 X49.0337 Y43.1917 
G01 X49.0298 Y43.1895 
G01 X49.0245 Y43.1842 
G01 X48.3476 Y42.5073 
G01 X48.2743 Y42.3804 
G01 X48.2364 Y42.2389 
G01 X48.2364 Y41.3185 
G01 X47.1255 Y40.2076 
G01 X47.0523 Y40.0807 
G01 X47.0144 Y39.9392 
G01 X47.0144 Y39.7927 
G01 X47.0160 Y39.7867 
G01 X47.0523 Y39.6512 
G01 X47.1239 Y39.5271 
G01 X47.1255 Y39.5243 
G01 X47.2291 Y39.4207 
G01 X48.0734 Y38.5765 
G01 X48.0734 Y38.0987 
G01 X48.1113 Y37.9572 
G01 X48.1845 Y37.8303 
G01 X48.2881 Y37.7267 
G01 X49.4852 Y36.5297 
G01 X49.6121 Y36.4564 
G01 X49.7536 Y36.4185 
G01 X51.1724 Y36.4185 
G01 X51.4813 Y36.2905 
G01 X51.7916 Y35.9803 
G01 X54.7060 Y33.0659 
G01 X54.7284 Y33.0367 
G01 X54.7576 Y33.0143 
G01 X54.7836 Y32.9883 
G01 X54.8154 Y32.9699 
G01 X54.8446 Y32.9475 
G01 X54.8766 Y32.9342 
G01 X55.1130 Y32.6978 
G01 X55.2410 Y32.3888 
G01 X55.2410 Y28.1318 
G01 X55.1130 Y27.8228 
G01 X52.9593 Y25.6691 
G01 X52.9302 Y25.6467 
G01 X52.9078 Y25.6176 
G01 X52.8818 Y25.5915 
G01 X52.8634 Y25.5597 
G01 X52.8410 Y25.5305 
G01 X52.8269 Y25.4965 
G01 X52.8085 Y25.4647 
G01 X52.7990 Y25.4291 
G01 X52.7849 Y25.3952 
G01 X52.7801 Y25.3587 
G01 X52.7706 Y25.3232 
G01 X52.7706 Y25.2864 
G01 X52.7658 Y25.2499 
G01 X52.7706 Y25.2134 
G01 X52.7706 Y25.1767 
G01 X52.7801 Y25.1411 
G01 X52.7849 Y25.1046 
G01 X52.7990 Y25.0707 
G01 X52.8085 Y25.0351 
G01 X52.8269 Y25.0033 
G01 X52.8918 Y24.8467 
G01 X52.8918 Y24.2798 
G01 X52.6749 Y23.7562 
G01 X52.2741 Y23.3554 
G01 X51.7504 Y23.1385 
G01 X51.3882 Y23.1385 
G01 X51.2467 Y23.1005 
G01 X51.1198 Y23.0273 
G01 X51.0162 Y22.9237 
G01 X50.4391 Y22.3466 
G01 X50.1762 Y22.0837 
G01 X49.8672 Y21.9557 
G01 X49.5818 Y21.9557 
G01 X49.4403 Y21.9178 
G01 X49.3134 Y21.8445 
G01 X49.0573 Y21.5884 
G01 X48.5336 Y21.3715 
G01 X47.9668 Y21.3715 
G01 X47.4431 Y21.5884 
G01 X46.9314 Y22.1001 
G01 X46.8046 Y22.1734 
G01 X46.6630 Y22.2113 
G01 X46.5165 Y22.2113 
G01 X46.3750 Y22.1734 
G01 X46.2482 Y22.1001 
G01 X46.1446 Y21.9965 
G01 X46.0713 Y21.8697 
G01 X46.0334 Y21.7282 
G01 X46.0334 Y17.7873 
G01 X46.0713 Y17.6458 
G01 X46.1127 Y17.5742 
G01 X46.1446 Y17.5189 
G01 X46.2482 Y17.4153 
G01 X46.3750 Y17.3421 
G01 X46.4770 Y17.3148 
G01 X46.5165 Y17.3042 
G01 X46.6630 Y17.3042 
G01 X46.8046 Y17.3421 
G01 X46.8762 Y17.3835 
G01 X46.9314 Y17.4153 
G01 X47.0350 Y17.5189 
G01 X47.0986 Y17.5826 
G01 X48.4263 Y17.5826 
G01 X49.0771 Y16.9317 
G01 X49.2040 Y16.8585 
G01 X49.3455 Y16.8206 
G01 X51.6373 Y16.8206 
G01 X51.6737 Y16.8158 
G01 X51.7102 Y16.8206 
G01 X51.7470 Y16.8206 
G01 X51.7825 Y16.8301 
G01 X51.8190 Y16.8349 
G01 X51.8328 Y16.8406 
G01 X64.4946 Y16.8406 
G01 X64.6361 Y16.8785 
G01 X64.7630 Y16.9518 
G01 X64.8666 Y17.0554 
G01 X67.0107 Y19.1994 
G01 X67.2736 Y19.4624 
G01 X67.5825 Y19.5903 
G01 X69.3534 Y19.5903 
G01 X69.4950 Y19.6283 
G01 X69.6218 Y19.7015 
G01 X69.7254 Y19.8051 
G01 X69.8034 Y19.8831 
G01 X70.0663 Y20.1460 
G01 X70.3753 Y20.2740 
G01 X72.0742 Y20.2740 
G01 X72.2157 Y20.3119 
G01 X72.3344 Y20.3804 
G01 X72.3591 Y20.3907 
G01 X72.3664 Y20.3918 
G01 X72.4267 Y20.4187 
G01 X72.4876 Y20.4439 
G01 X72.4935 Y20.4484 
G01 X72.5003 Y20.4514 
G01 X72.5515 Y20.4929 
G01 X72.6039 Y20.5331 
G01 X72.6084 Y20.5390 
G01 X72.6141 Y20.5436 
G01 X72.6529 Y20.5970 
G01 X72.6931 Y20.6493 
G01 X72.6959 Y20.6561 
G01 X72.7002 Y20.6621 
G01 X72.7239 Y20.7237 
G01 X72.7491 Y20.7847 
G01 X72.7501 Y20.7920 
G01 X72.7527 Y20.7989 
G01 X72.7596 Y20.8645 
G01 X72.7682 Y20.9299 
G01 X72.7673 Y20.9372 
G01 X72.7681 Y20.9446 
G01 X72.7577 Y21.0098 
G01 X72.7491 Y21.0752 
G01 X72.7463 Y21.0820 
G01 X72.7451 Y21.0893 
G01 X72.7183 Y21.1496 
G01 X72.7056 Y21.1802 
G01 X72.7309 Y21.1697 
G01 X72.8924 Y21.1376 
G01 X74.3778 Y21.1376 
G01 X74.5393 Y21.1697 
G01 X74.5646 Y21.1802 
G01 X74.5519 Y21.1496 
G01 X74.5251 Y21.0893 
G01 X74.5239 Y21.0820 
G01 X74.5211 Y21.0752 
G01 X74.5125 Y21.0098 
G01 X74.5022 Y20.9446 
G01 X74.5029 Y20.9372 
G01 X74.5020 Y20.9299 
G01 X74.5106 Y20.8645 
G01 X74.5175 Y20.7989 
G01 X74.5201 Y20.7920 
G01 X74.5211 Y20.7847 
G01 X74.5463 Y20.7237 
G01 X74.5700 Y20.6621 
G01 X74.5743 Y20.6561 
G01 X74.5772 Y20.6493 
G01 X74.6173 Y20.5970 
G01 X74.6561 Y20.5436 
G01 X74.6619 Y20.5390 
G01 X74.6664 Y20.5331 
G01 X74.7187 Y20.4929 
G01 X74.7700 Y20.4514 
G01 X74.7767 Y20.4484 
G01 X74.7826 Y20.4439 
G01 X74.8435 Y20.4187 
G01 X74.9038 Y20.3918 
G01 X74.9111 Y20.3907 
G01 X74.9299 Y20.3829 
G01 X75.2450 Y20.0678 
G01 X75.4155 Y19.6562 
G01 X75.4155 Y19.2106 
G01 X75.2450 Y18.7989 
G01 X74.9299 Y18.4839 
G01 X74.5183 Y18.3134 
G01 X72.7519 Y18.3134 
G01 X72.3344 Y18.4863 
G01 X72.2157 Y18.5549 
G01 X72.0742 Y18.5928 
G01 X71.0479 Y18.5928 
G01 X70.9064 Y18.5549 
G01 X70.7795 Y18.4816 
G01 X70.6759 Y18.3780 
G01 X70.3350 Y18.0371 
G01 X70.0261 Y17.9091 
G01 X68.2552 Y17.9091 
G01 X68.1136 Y17.8712 
G01 X67.9868 Y17.7980 
G01 X67.8832 Y17.6944 
G01 X65.4762 Y15.2874 
G01 X65.1657 Y15.1588 
G01 X65.1301 Y15.1492 
G01 X65.0983 Y15.1308 
G01 X65.0643 Y15.1168 
G01 X65.0351 Y15.0944 
G01 X65.0033 Y15.0760 
G01 X64.9772 Y15.0500 
G01 X64.9481 Y15.0276 
G01 X64.9257 Y14.9984 
G01 X64.8997 Y14.9724 
G01 X64.8813 Y14.9405 
G01 X64.8589 Y14.9114 
G01 X64.8448 Y14.8774 
G01 X64.8264 Y14.8455 
G01 X64.8169 Y14.8100 
G01 X64.8028 Y14.7760 
G01 X64.7980 Y14.7395 
G01 X64.7885 Y14.7040 
G01 X64.7885 Y14.6672 
G01 X64.7837 Y14.6308 
G01 X64.7885 Y14.5943 
G01 X64.7885 Y14.5575 
G01 X64.7980 Y14.5220 
G01 X64.8028 Y14.4855 
G01 X64.8169 Y14.4515 
G01 X64.8264 Y14.4160 
G01 X64.8448 Y14.3841 
G01 X64.8589 Y14.3502 
G01 X64.8813 Y14.3210 
G01 X64.8997 Y14.2891 
G01 X64.9257 Y14.2631 
G01 X64.9481 Y14.2339 
G01 X64.9772 Y14.2115 
G01 X65.0327 Y14.1561 
G01 X67.1025 Y12.0863 
G01 X67.3654 Y11.8234 
G01 X67.4934 Y11.5144 
G01 X67.4934 Y11.3237 
G01 X67.5313 Y11.1822 
G01 X67.6046 Y11.0554 
G01 X67.7082 Y10.9518 
G01 X67.8350 Y10.8785 
G01 X67.9765 Y10.8406 
G01 X73.1672 Y10.8406 
G01 X73.4762 Y10.7126 
G01 X73.5385 Y10.6503 
G01 X73.6653 Y10.5771 
G01 X73.8068 Y10.5391 
G01 X76.2062 Y10.5391 
G01 X76.3477 Y10.5771 
G01 X76.4745 Y10.6503 
G01 X76.5781 Y10.7539 
G01 X76.6514 Y10.8808 
G01 X76.6893 Y11.0223 
G01 X76.6893 Y11.5943 
G01 X76.9884 Y12.3163 
G01 X77.5410 Y12.8690 
G01 X78.2631 Y13.1680 
G01 X79.0446 Y13.1680 
G01 X79.7667 Y12.8690 
G01 X80.3193 Y12.3163 
G01 X80.6184 Y11.5943 
G01 X80.6184 Y7.8028 
G01 X80.3193 Y7.0808 
G01 X79.7667 Y6.5281 
G01 X79.0446 Y6.2290 
G01 X78.2631 Y6.2290 
G01 X77.5410 Y6.5281 
G01 X76.9884 Y7.0808 
G01 X76.6893 Y7.8028 
G01 X76.6893 Y8.3748 
G01 X76.6514 Y8.5163 
G01 X76.5781 Y8.6432 
G01 X76.4745 Y8.7468 
G01 X76.3477 Y8.8200 
G01 X76.2062 Y8.8579 
G01 X73.1342 Y8.8579 
G01 X72.8253 Y8.9859 
G01 X72.7630 Y9.0482 
G01 X72.6361 Y9.1215 
G01 X72.4946 Y9.1594 
G01 X71.1637 Y9.1594 
G01 X71.1272 Y9.1642 
G01 X71.0907 Y9.1594 
G01 X71.0539 Y9.1594 
G01 X71.0184 Y9.1499 
G01 X70.9819 Y9.1451 
G01 X70.9479 Y9.1310 
G01 X70.9124 Y9.1215 
G01 X70.8806 Y9.1031 
G01 X70.8466 Y9.0890 
G01 X70.8174 Y9.0666 
G01 X70.7856 Y9.0482 
G01 X70.7596 Y9.0222 
G01 X70.7304 Y8.9998 
G01 X70.7080 Y8.9706 
G01 X70.6820 Y8.9446 
G01 X70.6636 Y8.9128 
G01 X70.6412 Y8.8836 
G01 X70.6271 Y8.8496 
G01 X70.6087 Y8.8178 
G01 X70.5992 Y8.7822 
G01 X70.5851 Y8.7482 
G01 X70.5803 Y8.7118 
G01 X70.5708 Y8.6762 
G01 X70.5708 Y8.6395 
G01 X70.5660 Y8.6030 
G01 X70.5708 Y8.5665 
G01 X70.5708 Y8.5297 
G01 X70.5803 Y8.4942 
G01 X70.5851 Y8.4577 
G01 X70.5992 Y8.4238 
G01 X70.6087 Y8.3882 
G01 X70.6271 Y8.3564 
G01 X70.7700 Y8.0114 
G01 X70.7700 Y5.8600 
G01 X70.7398 Y5.7872 
G01 X70.7214 Y5.7553 
G01 X70.7119 Y5.7198 
G01 X70.6978 Y5.6858 
G01 X70.6930 Y5.6493 
G01 X70.6835 Y5.6138 
G01 X70.6835 Y5.5770 
G01 X70.6787 Y5.5406 
G01 X70.6835 Y5.5041 
G01 X70.6835 Y5.4673 
G01 X70.6930 Y5.4318 
G01 X70.6978 Y5.3953 
G01 X70.7119 Y5.3613 
G01 X70.7214 Y5.3258 
G01 X70.7398 Y5.2939 
G01 X70.7539 Y5.2599 
G01 X70.7763 Y5.2308 
G01 X70.7947 Y5.1989 
G01 X70.8207 Y5.1729 
G01 X70.8431 Y5.1437 
G01 X70.8723 Y5.1213 
G01 X72.3948 Y3.5988 
G01 X72.3976 Y3.5972 
G01 X72.5217 Y3.5255 
G01 X72.6572 Y3.4892 
G01 X72.6632 Y3.4876 
G01 X88.6028 Y3.4876 
G01 X88.7443 Y3.5255 
G01 X88.8712 Y3.5988 
G01 X88.9748 Y3.7024 
G01 X96.5282 Y11.2558 
G01 X96.6015 Y11.3827 
G01 X96.6394 Y11.5242 
G01 X96.6394 Y19.7069 
G01 X96.6442 Y19.7434 
G01 X96.6394 Y19.7798 
G01 X96.6394 Y19.8166 
G01 X96.6299 Y19.8521 
G01 X96.6251 Y19.8886 
G01 X96.6110 Y19.9226 
G01 X96.6015 Y19.9581 
G01 X96.5831 Y19.9900 
G01 X96.5378 Y20.0993 
G01 X96.5378 Y20.5853 
G01 X96.7238 Y21.0343 
G01 X98.6672 Y22.9777 
G01 X98.7405 Y23.1046 
G01 X98.7784 Y23.2461 
G01 X98.7784 Y25.2430 
G01 X98.9644 Y25.6920 
G01 X101.2397 Y27.9673 
G01 X101.6098 Y28.3374 
G01 X101.9055 Y28.4599 
G01 X101.9411 Y28.4694 
G01 X101.9729 Y28.4878 
G01 X102.0069 Y28.5019 
G01 X102.0361 Y28.5243 
G01 X102.0679 Y28.5427 
G01 X102.0939 Y28.5687 
G01 X102.1231 Y28.5911 
G01 X102.1455 Y28.6203 
G01 X102.1715 Y28.6463 
G01 X102.1899 Y28.6781 
G01 X102.2123 Y28.7073 
G01 X102.2264 Y28.7413 
G01 X102.2448 Y28.7731 
G01 X102.2543 Y28.8087 
G01 X102.2684 Y28.8426 
G01 X102.2732 Y28.8791 
G01 X102.2827 Y28.9146 
G01 X102.2827 Y28.9514 
G01 X102.2875 Y28.9879 
G01 X102.2827 Y29.0244 
G01 X102.2827 Y29.0612 
G01 X102.2732 Y29.0967 
G01 X102.2684 Y29.1331 
G01 X102.2543 Y29.1671 
G01 X102.2448 Y29.2027 
G01 X102.2264 Y29.2345 
G01 X102.2123 Y29.2685 
G01 X102.1899 Y29.2977 
G01 X102.1715 Y29.3295 
G01 X102.1455 Y29.3555 
G01 X102.1231 Y29.3847 
G01 X102.0939 Y29.4071 
G01 X100.2304 Y31.2707 
G01 X100.1035 Y31.3439 
G01 X99.9620 Y31.3819 
G01 X95.4593 Y31.3819 
G01 X95.3238 Y31.3456 
G01 X95.3178 Y31.3439 
G01 X95.3150 Y31.3423 
G01 X95.1909 Y31.2707 
G01 X95.0889 Y31.1687 
G01 X95.0851 Y31.1633 
G01 X95.0141 Y31.0402 
G01 X94.9767 Y30.9009 
G01 X94.9762 Y30.7522 
G01 X95.0125 Y30.6167 
G01 X95.0141 Y30.6107 
G01 X95.0157 Y30.6079 
G01 X95.0873 Y30.4838 
G01 X95.6967 Y29.8745 
G01 X95.6967 Y28.5468 
G01 X95.0458 Y27.8960 
G01 X94.9726 Y27.7691 
G01 X94.9347 Y27.6276 
G01 X94.9347 Y25.9269 
G01 X94.8067 Y25.6179 
G01 X87.9095 Y18.7207 
G01 X87.6006 Y18.5928 
G01 X84.2833 Y18.5928 
G01 X84.2105 Y18.5928 
G01 X84.1368 Y18.5928 
G01 X84.0696 Y18.5748 
G01 X83.9953 Y18.5549 
G01 X83.9208 Y18.5118 
G01 X83.8766 Y18.4863 
G01 X83.4591 Y18.3134 
G01 X81.6842 Y18.3134 
G01 X81.5487 Y18.2771 
G01 X81.5427 Y18.2755 
G01 X81.5399 Y18.2738 
G01 X81.4158 Y18.2022 
G01 X81.3139 Y18.1002 
G01 X81.3101 Y18.0948 
G01 X81.2390 Y17.9717 
G01 X81.2017 Y17.8324 
G01 X81.2011 Y17.6837 
G01 X81.2374 Y17.5482 
G01 X81.2390 Y17.5422 
G01 X81.2406 Y17.5394 
G01 X81.3123 Y17.4153 
G01 X82.3948 Y16.3328 
G01 X82.5217 Y16.2595 
G01 X82.6632 Y16.2216 
G01 X83.2430 Y16.2216 
G01 X83.6920 Y16.0356 
G01 X85.8491 Y13.8785 
G01 X86.0236 Y13.4572 
G01 X86.0332 Y13.4216 
G01 X86.0515 Y13.3898 
G01 X86.0656 Y13.3558 
G01 X86.0880 Y13.3266 
G01 X86.1064 Y13.2948 
G01 X86.1324 Y13.2688 
G01 X86.1548 Y13.2396 
G01 X86.1840 Y13.2172 
G01 X86.2100 Y13.1912 
G01 X86.2381 Y13.1749 
G01 X86.6701 Y12.7430 
G01 X86.9755 Y12.2139 
G01 X87.1337 Y11.6238 
G01 X87.1337 Y8.0030 
G01 X86.9755 Y7.4129 
G01 X86.6701 Y6.8839 
G01 X86.2381 Y6.4519 
G01 X85.7090 Y6.1464 
G01 X85.1190 Y5.9883 
G01 X84.5080 Y5.9883 
G01 X83.9180 Y6.1464 
G01 X83.3889 Y6.4519 
G01 X82.9569 Y6.8839 
G01 X82.6515 Y7.4129 
G01 X82.4934 Y8.0030 
G01 X82.4934 Y11.6238 
G01 X82.6515 Y12.2139 
G01 X82.9164 Y12.6728 
G01 X82.9672 Y12.7608 
G01 X82.9896 Y12.7996 
G01 X83.0068 Y12.8637 
G01 X83.0275 Y12.9411 
G01 X83.0275 Y13.0876 
G01 X83.0077 Y13.1619 
G01 X82.9896 Y13.2291 
G01 X82.9830 Y13.2406 
G01 X82.9164 Y13.3560 
G01 X82.8128 Y13.4596 
G01 X82.6052 Y13.6672 
G01 X82.5095 Y13.7225 
G01 X82.4783 Y13.7405 
G01 X82.3864 Y13.7651 
G01 X82.3368 Y13.7784 
G01 X81.7570 Y13.7784 
G01 X81.3080 Y13.9644 
G01 X78.0094 Y17.2630 
G01 X77.6393 Y17.6331 
G01 X77.4533 Y18.0821 
G01 X77.4533 Y29.0298 
G01 X77.4154 Y29.1713 
G01 X77.3421 Y29.2981 
G01 X77.2385 Y29.4017 
G01 X77.1117 Y29.4750 
G01 X76.9702 Y29.5129 
G01 X76.8237 Y29.5129 
G01 X76.6821 Y29.4750 
G01 X76.5553 Y29.4017 
G01 X76.4517 Y29.2981 
G01 X73.7885 Y26.6350 
G01 X73.6849 Y26.5314 
G01 X73.6117 Y26.4045 
G01 X73.5738 Y26.2630 
G01 X73.5738 Y26.1165 
G01 X73.6117 Y25.9750 
G01 X73.6849 Y25.8481 
G01 X73.7885 Y25.7445 
G01 X73.9154 Y25.6713 
G01 X74.0569 Y25.6334 
G01 X74.5183 Y25.6334 
G01 X74.9299 Y25.4629 
G01 X75.2450 Y25.1478 
G01 X75.4155 Y24.7362 
G01 X75.4155 Y24.2906 
G01 X75.2450 Y23.8789 
G01 X74.9299 Y23.5639 
G01 X74.9111 Y23.5561 
G01 X74.9038 Y23.5549 
G01 X74.8435 Y23.5281 
G01 X74.7826 Y23.5029 
G01 X74.7767 Y23.4983 
G01 X74.7699 Y23.4953 
G01 X74.7187 Y23.4538 
G01 X74.6664 Y23.4137 
G01 X74.6618 Y23.4078 
G01 X74.6561 Y23.4031 
G01 X74.6173 Y23.3498 
G01 X74.5772 Y23.2974 
G01 X74.5743 Y23.2906 
G01 X74.5700 Y23.2846 
G01 X74.5463 Y23.2230 
G01 X74.5211 Y23.1621 
G01 X74.5201 Y23.1547 
G01 X74.5175 Y23.1478 
G01 X74.5106 Y23.0822 
G01 X74.5020 Y23.0168 
G01 X74.5029 Y23.0095 
G01 X74.5022 Y23.0021 
G01 X74.5125 Y22.9370 
G01 X74.5211 Y22.8716 
G01 X74.5239 Y22.8648 
G01 X74.5251 Y22.8574 
G01 X74.5519 Y22.7972 
G01 X74.5646 Y22.7666 
G01 X74.5393 Y22.7771 
G01 X74.3778 Y22.8092 
G01 X72.8924 Y22.8092 
G01 X72.7309 Y22.7771 
G01 X72.7056 Y22.7666 
G01 X72.7183 Y22.7972 
G01 X72.7451 Y22.8574 
G01 X72.7463 Y22.8648 
G01 X72.7491 Y22.8716 
G01 X72.7577 Y22.9369 
G01 X72.7681 Y23.0021 
G01 X72.7673 Y23.0095 
G01 X72.7682 Y23.0168 
G01 X72.7596 Y23.0822 
G01 X72.7527 Y23.1478 
G01 X72.7501 Y23.1547 
G01 X72.7491 Y23.1621 
G01 X72.7239 Y23.2230 
G01 X72.7002 Y23.2846 
G01 X72.6959 Y23.2906 
G01 X72.6931 Y23.2974 
G01 X72.6529 Y23.3498 
G01 X72.6141 Y23.4031 
G01 X72.6084 Y23.4078 
G01 X72.6039 Y23.4137 
G01 X72.5515 Y23.4538 
G01 X72.5003 Y23.4953 
G01 X72.4935 Y23.4983 
G01 X72.4876 Y23.5029 
G01 X72.4267 Y23.5281 
G01 X72.3664 Y23.5549 
G01 X72.3591 Y23.5561 
G01 X72.3403 Y23.5639 
G01 X72.0252 Y23.8789 
G01 X72.0027 Y23.9085 
G01 X71.9843 Y23.9403 
G01 X71.9583 Y23.9663 
G01 X71.9359 Y23.9955 
G01 X71.9067 Y24.0179 
G01 X71.8807 Y24.0439 
G01 X71.8489 Y24.0623 
G01 X71.8197 Y24.0847 
G01 X71.7857 Y24.0988 
G01 X71.7538 Y24.1172 
G01 X71.7183 Y24.1267 
G01 X71.6844 Y24.1407 
G01 X71.6479 Y24.1455 
G01 X71.6123 Y24.1551 
G01 X71.5755 Y24.1551 
G01 X71.5391 Y24.1599 
G01 X71.5026 Y24.1551 
G01 X71.4658 Y24.1551 
G01 X71.4303 Y24.1456 
G01 X71.3939 Y24.1408 
G01 X71.3599 Y24.1267 
G01 X71.3243 Y24.1172 
G01 X71.2925 Y24.0988 
G01 X71.2585 Y24.0847 
G01 X71.2293 Y24.0623 
G01 X71.1974 Y24.0439 
G01 X71.1714 Y24.0179 
G01 X71.1423 Y23.9955 
G01 X71.1199 Y23.9663 
G01 X70.7392 Y23.5857 
G01 X68.9235 Y21.7700 
G01 X68.4745 Y21.5840 
G01 X65.7864 Y21.5840 
G01 X65.6449 Y21.5461 
G01 X65.5180 Y21.4728 
G01 X65.4145 Y21.3692 
G01 X65.3415 Y21.2962 
G01 X64.6871 Y21.0252 
G01 X63.9788 Y21.0252 
G01 X63.3244 Y21.2962 
G01 X63.0665 Y21.5542 
G01 X63.0441 Y21.5834 
G01 X63.0149 Y21.6057 
G01 X62.9889 Y21.6318 
G01 X62.9571 Y21.6501 
G01 X62.9279 Y21.6725 
G01 X62.8939 Y21.6866 
G01 X62.8620 Y21.7050 
G01 X62.8265 Y21.7145 
G01 X62.6927 Y21.7700 
G01 X62.3184 Y22.1442 
G01 X61.7909 Y22.6717 
G01 X61.6641 Y22.7449 
G01 X61.5226 Y22.7829 
G01 X61.2728 Y22.7829 
G01 X60.6184 Y23.0539 
G01 X60.1176 Y23.5547 
G01 X59.8466 Y24.2091 
G01 X59.8466 Y24.9174 
G01 X60.1176 Y25.5718 
G01 X60.6184 Y26.0726 
G01 X61.2728 Y26.3437 
G01 X61.9811 Y26.3437 
G01 X62.6355 Y26.0726 
G01 X63.1363 Y25.5718 
G01 X63.3884 Y24.9631 
G01 X63.3979 Y24.9276 
G01 X63.4163 Y24.8958 
G01 X63.4304 Y24.8618 
G01 X63.4528 Y24.8326 
G01 X63.4712 Y24.8008 
G01 X63.4972 Y24.7748 
G01 X63.5196 Y24.7456 
G01 X63.5488 Y24.7232 
G01 X63.5748 Y24.6972 
G01 X63.6066 Y24.6788 
G01 X63.6358 Y24.6564 
G01 X63.6698 Y24.6423 
G01 X63.7017 Y24.6239 
G01 X63.7372 Y24.6144 
G01 X63.7712 Y24.6003 
G01 X63.8076 Y24.5955 
G01 X63.8432 Y24.5860 
G01 X63.8800 Y24.5860 
G01 X63.9164 Y24.5812 
G01 X63.9529 Y24.5860 
G01 X64.6871 Y24.5860 
G01 X65.3415 Y24.3149 
G01 X65.5180 Y24.1384 
G01 X65.6449 Y24.0651 
G01 X65.7864 Y24.0272 
G01 X67.5683 Y24.0272 
G01 X67.7098 Y24.0651 
G01 X67.8329 Y24.1362 
G01 X67.8367 Y24.1384 
G01 X67.8437 Y24.1454 
G01 X68.7409 Y25.0426 
G01 X68.7577 Y25.0716 
G01 X68.8142 Y25.1695 
G01 X68.8521 Y25.3110 
G01 X68.8521 Y25.9580 
G01 X69.0381 Y26.4070 
G01 X70.7110 Y28.0799 
G01 X71.0811 Y28.4500 
G01 X71.5301 Y28.6360 
G01 X72.1771 Y28.6360 
G01 X72.3186 Y28.6739 
G01 X72.4455 Y28.7471 
G01 X72.5491 Y28.8507 
G01 X77.3421 Y33.6438 
G01 X77.4154 Y33.7707 
G01 X77.4533 Y33.9122 
G01 X77.4533 Y34.1688 
G01 X77.6393 Y34.6178 
G01 X78.1130 Y35.0915 
G01 X78.8126 Y35.7911 
G01 X79.2888 Y36.2673 
G01 X79.3621 Y36.3942 
G01 X79.4000 Y36.5357 
G01 X79.4000 Y44.4227 
G01 X79.3621 Y44.5642 
G01 X79.2888 Y44.6911 
G01 X79.1852 Y44.7947 
G01 X78.9644 Y45.0155 
G01 X78.7784 Y45.4645 
G01 X78.7784 Y56.2430 
G01 X78.9644 Y56.6920 
G01 X80.8345 Y58.5621 
G01 X80.9381 Y58.6657 
G01 X88.8218 Y66.5494 
G01 X88.8951 Y66.6763 
G01 X88.9330 Y66.8178 
G01 X88.9330 Y74.3266 
G01 X88.8951 Y74.4681 
G01 X88.8218 Y74.5950 
G01 X88.7182 Y74.6986 
G01 X88.4983 Y74.9185 
G01 X88.3742 Y75.2181 
G01 X88.3742 Y75.2230 
G01 X88.3363 Y75.3645 
G01 X88.2301 Y75.5483 
G01 X88.0894 Y76.0736 
G01 X88.0894 Y76.6174 
G01 X88.2301 Y77.1426 
G01 X88.3363 Y77.3265 
G01 X88.3742 Y77.4680 
G01 X88.3742 Y77.4728 
G01 X88.4983 Y77.7724 
G01 X88.7276 Y78.0018 
G01 X89.0272 Y78.1259 
G01 X89.0321 Y78.1259 
G01 X89.1736 Y78.1638 
G01 X89.3574 Y78.2699 
G01 X89.8827 Y78.4107 
G01 X93.9264 Y78.4107 
G01 X94.4517 Y78.2699 
G01 X94.9226 Y77.9980 
G01 X96.1731 Y76.7475 
G01 X96.3000 Y76.6742 
G01 X96.4415 Y76.6363 
G01 X97.4572 Y76.6363 
G01 X97.5987 Y76.6742 
G01 X97.7255 Y76.7475 
G01 X97.8291 Y76.8511 
G01 X98.2042 Y77.5007 
G01 X98.6362 Y77.9327 
G01 X99.1652 Y78.2381 
G01 X99.7553 Y78.3962 
G01 X100.3662 Y78.3962 
G01 X100.9563 Y78.2381 
G01 X101.4854 Y77.9327 
G01 X101.9173 Y77.5007 
G01 X102.1790 Y77.0475 
G01 X102.2460 Y76.9315 
G01 X102.2523 Y76.9206 
G01 X102.3559 Y76.8170 
G01 X102.4827 Y76.7437 
G01 X102.6242 Y76.7058 
G01 X105.0668 Y76.7058 
G01 X105.2023 Y76.7421 
G01 X105.2083 Y76.7437 
G01 X105.2128 Y76.7463 
G01 X105.3104 Y76.8027 
G01 X105.9004 Y76.9608 
G01 X109.5213 Y76.9608 
G01 X110.1113 Y76.8027 
G01 X110.6404 Y76.4972 
G01 X111.0724 Y76.0652 
G01 X111.3778 Y75.5362 
G01 X111.5360 Y74.9461 
G01 X111.5360 Y74.3352 
G01 X111.3778 Y73.7451 
G01 X111.0724 Y73.2160 
G01 X110.6404 Y72.7840 
G01 X110.1113 Y72.4786 
G01 X109.5213 Y72.3205 
G01 X105.9004 Y72.3205 
G01 X105.3104 Y72.4786 
G01 X105.2083 Y72.5375 
G01 X105.0668 Y72.5754 
G01 X102.6849 Y72.5754 
G01 X102.5434 Y72.5375 
G01 X102.4166 Y72.4642 
G01 X102.3146 Y72.3623 
G01 X102.2610 Y72.2706 
G01 X102.2397 Y72.2338 
G01 X102.2228 Y72.1706 
G01 X101.9173 Y71.6416 
G01 X101.4854 Y71.2096 
G01 X100.9563 Y70.9041 
G01 X100.3662 Y70.7460 
G01 X99.7553 Y70.7460 
G01 X99.1652 Y70.9041 
G01 X98.6362 Y71.2096 
G01 X98.2042 Y71.6416 
G01 X97.8291 Y72.2912 
G01 X97.7255 Y72.3948 
G01 X97.7228 Y72.3964 
G01 X97.5987 Y72.4680 
G01 X97.4632 Y72.5043 
G01 X97.4572 Y72.5059 
G01 X95.1570 Y72.5059 
G01 X94.6317 Y72.6467 
G01 X94.1608 Y72.9185 
G01 X92.9103 Y74.1691 
G01 X92.7834 Y74.2424 
G01 X92.6419 Y74.2803 
G01 X91.8593 Y74.2803 
G01 X91.7178 Y74.2424 
G01 X91.5909 Y74.1691 
G01 X91.4874 Y74.0655 
G01 X91.4141 Y73.9386 
G01 X91.3762 Y73.7971 
G01 X91.3762 Y65.9116 
G01 X91.1902 Y65.4626 
G01 X82.5621 Y56.8345 
G01 X81.3328 Y55.6052 
G01 X81.2595 Y55.4783 
G01 X81.2216 Y55.3368 
G01 X81.2216 Y46.3707 
G01 X81.2595 Y46.2292 
G01 X81.3328 Y46.1023 
G01 X81.4364 Y45.9987 
G01 X81.6572 Y45.7779 
G01 X81.8432 Y45.3289 
G01 X81.8432 Y35.6295 
G01 X81.6572 Y35.1805 
G01 X80.4366 Y33.9599 
G01 X80.0077 Y33.5310 
G01 X79.9344 Y33.4041 
G01 X79.8965 Y33.2626 
G01 X79.8965 Y25.7075 
G01 X79.9328 Y25.5720 
G01 X79.9344 Y25.5660 
G01 X79.9360 Y25.5632 
G01 X80.0077 Y25.4391 
G01 X80.1113 Y25.3355 
G01 X80.2381 Y25.2623 
G01 X80.3774 Y25.2250 
G01 X80.5262 Y25.2244 
G01 X80.6616 Y25.2607 
G01 X80.6677 Y25.2623 
G01 X80.6705 Y25.2639 
G01 X80.7945 Y25.3355 
G01 X81.1372 Y25.6782 
G01 X81.6422 Y25.8874 
G01 X83.5096 Y25.8874 
G01 X83.7192 Y25.8006 
G01 X83.7510 Y25.7822 
G01 X83.7866 Y25.7727 
G01 X83.8205 Y25.7586 
G01 X83.8570 Y25.7538 
G01 X83.8925 Y25.7443 
G01 X83.9293 Y25.7443 
G01 X83.9658 Y25.7395 
G01 X84.0023 Y25.7443 
G01 X84.0391 Y25.7443 
G01 X84.0746 Y25.7538 
G01 X84.1110 Y25.7586 
G01 X84.1450 Y25.7727 
G01 X84.1806 Y25.7822 
G01 X84.2124 Y25.8006 
G01 X84.2464 Y25.8146 
G01 X84.2756 Y25.8370 
G01 X84.3074 Y25.8554 
G01 X84.3334 Y25.8814 
G01 X84.3626 Y25.9038 
G01 X84.3850 Y25.9330 
G01 X85.7082 Y27.2562 
G01 X85.7098 Y27.2590 
G01 X85.7815 Y27.3831 
G01 X85.8178 Y27.5186 
G01 X85.8194 Y27.5246 
G01 X85.8194 Y58.1317 
G01 X85.9860 Y58.5340 
G01 X94.2742 Y66.8222 
G01 X94.6765 Y66.9889 
G01 X102.3871 Y66.9889 
G01 X102.7894 Y66.8222 
G01 X103.2485 Y66.3630 
G01 X103.3754 Y66.2898 
G01 X103.5169 Y66.2519 
G01 X103.6634 Y66.2519 
G01 X103.8049 Y66.2898 
G01 X103.9318 Y66.3630 
G01 X104.0354 Y66.4666 
G01 X104.1087 Y66.5935 
G01 X104.1466 Y66.7350 
G01 X104.1466 Y67.4430 
G01 X104.4457 Y68.1651 
G01 X104.9983 Y68.7177 
G01 X105.7204 Y69.0168 
G01 X109.5118 Y69.0168 
G01 X110.2339 Y68.7177 
G01 X110.7865 Y68.1651 
G01 X111.0856 Y67.4430 
G01 X111.0856 Y66.6615 
G01 X110.9447 Y66.3212 
G01 X110.9263 Y66.2894 
G01 X110.9167 Y66.2539 
G01 X110.9027 Y66.2199 
G01 X110.8979 Y66.1834 
G01 X110.8883 Y66.1479 
G01 X110.8883 Y66.1111 
G01 X110.8835 Y66.0746 
G01 X110.8883 Y66.0382 
G01 X110.8883 Y66.0014 
G01 X110.8979 Y65.9658 
G01 X110.9027 Y65.9294 
G01 X110.9167 Y65.8954 
G01 X110.9263 Y65.8599 
G01 X110.9447 Y65.8280 
G01 X110.9587 Y65.7940 
G01 X110.9811 Y65.7648 
G01 X110.9995 Y65.7330 
G01 X111.0255 Y65.7070 
G01 X111.0479 Y65.6778 
G01 X111.0771 Y65.6554 
G01 X113.3861 Y63.3464 
G01 X113.8231 Y62.9094 
G01 X114.0453 Y62.3729 
G01 X114.0453 Y35.3520 
G01 X114.0833 Y35.2105 
G01 X114.1565 Y35.0836 
G01 X114.1700 Y35.0701 
G01 X115.8882 Y33.3520 
G01 X116.0150 Y33.2787 
G01 X116.1565 Y33.2408 
G01 X116.3030 Y33.2408 
G01 X116.3091 Y33.2424 
G01 X116.4446 Y33.2787 
G01 X116.5686 Y33.3504 
G01 X116.5714 Y33.3520 
G01 X116.6750 Y33.4556 
G01 X116.7483 Y33.5824 
G01 X116.7862 Y33.7240 
G01 X116.7862 Y79.0150 
G01 X116.7863 Y79.0882 
G01 X116.7676 Y79.1585 
G01 X116.7486 Y79.2298 
G01 X116.7121 Y79.2933 
G01 X116.6756 Y79.3568 
G01 X116.6243 Y79.4082 
G01 X116.5722 Y79.4606 
G01 X116.5094 Y79.4969 
G01 X116.4454 Y79.5340 
G01 X116.3751 Y79.5530 
G01 X116.3039 Y79.5722 
G01 X116.2302 Y79.5723 
G01 X1.4707 Y79.7570 
G01 X1.3984 Y79.7571 
G01 X1.3246 Y79.7573 
G01 X1.2544 Y79.7386 
G01 X1.1831 Y79.7196 
G01 X1.1196 Y79.6831 
G01 X1.0561 Y79.6465 
G01 X1.0047 Y79.5953 
G01 X0.9523 Y79.5431 
G01 X0.9160 Y79.4804 
G01 X0.8789 Y79.4163 
G01 X0.8599 Y79.3461 
G01 X0.8407 Y79.2749 
G01 X0.8406 Y79.2017 
G01 X0.8405 Y79.1284 
G01 X0.8406 Y75.5630 
G01 X0.8769 Y75.4275 
G01 X0.8785 Y75.4215 
G01 X0.8801 Y75.4187 
G01 X0.9518 Y75.2946 
G01 X1.0554 Y75.1910 
G01 X1.1822 Y75.1178 
G01 X1.2842 Y75.0905 
G01 X1.3237 Y75.0799 
G01 X1.4703 Y75.0799 
G01 X1.6057 Y75.1162 
G01 X1.6118 Y75.1178 
G01 X1.7386 Y75.1910 
G01 X2.2317 Y75.4757 
G01 X2.8270 Y75.6352 
G01 X3.4433 Y75.6352 
G01 X4.0386 Y75.4757 
G01 X4.5723 Y75.1676 
G01 X5.0081 Y74.7318 
G01 X5.3163 Y74.1981 
G01 X5.4758 Y73.6028 
G01 X5.4758 Y72.9865 
G01 X5.3163 Y72.3912 
G01 X5.0081 Y71.8575 
G01 X4.5723 Y71.4217 
G01 X4.0386 Y71.1136 
G01 X3.4433 Y70.9540 
G01 X2.8270 Y70.9540 
G01 X2.2317 Y71.1136 
G01 X1.6118 Y71.4715 
G01 X1.4703 Y71.5094 
G01 X1.3237 Y71.5094 
G01 X1.2874 Y71.4997 
G01 X1.1822 Y71.4715 
G01 X1.0554 Y71.3983 
G01 X0.9518 Y71.2947 
G01 X0.8785 Y71.1678 
G01 X0.8406 Y71.0263 
G01 X0.8406 Y1.3956 
G01 X0.8405 Y1.3224 
G01 X0.8592 Y1.2521 
G01 X0.8782 Y1.1808 
G01 X0.9147 Y1.1173 
G01 X0.9512 Y1.0538 
G01 X1.0025 Y1.0024 
G01 X1.0546 Y0.9501 
G01 X1.1174 Y0.9137 
G01 X1.1814 Y0.8766 
G01 X1.2517 Y0.8576 
G01 X1.3228 Y0.8385 
G01 X1.3966 Y0.8384 
G01 X36.2018 Y0.7823 
G01 X36.2741 Y0.7822 
G01 X36.3478 Y0.7821 
G01 X36.4181 Y0.8008 
G01 X36.4894 Y0.8198 
G01 X36.5529 Y0.8563 
G01 X36.6164 Y0.8928 
G01 X36.6678 Y0.9440 
G01 X36.7202 Y0.9962 
G01 X36.7565 Y1.0589 
G01 X36.7936 Y1.1230 
G01 X36.8126 Y1.1933 
G01 X36.8318 Y1.2644 
G01 X36.8319 Y1.3377 
G01 X36.8320 Y1.4110 
G01 X36.8133 Y1.4812 
G01 X36.7943 Y1.5525 
G01 X36.7578 Y1.6160 
G01 X36.7213 Y1.6795 
G01 X36.6701 Y1.7309 
G01 X36.6214 Y1.7797 
G01 X36.6214 Y3.1072 
G01 X37.5602 Y4.0460 
G01 X38.8878 Y4.0460 
G01 X39.5387 Y3.3951 
G01 X39.6655 Y3.3219 
G01 X39.8070 Y3.2840 
G01 X40.9380 Y3.2840 
G01 X41.0795 Y3.3219 
G01 X41.2063 Y3.3951 
G01 X41.3099 Y3.4987 
G01 X42.2382 Y4.4270 
G01 X42.3115 Y4.5539 
G01 X42.3494 Y4.6954 
G01 X42.3494 Y4.8569 
G01 X42.3115 Y4.9984 
G01 X42.2382 Y5.1252 
G01 X42.1346 Y5.2288 
G01 X42.0078 Y5.3021 
G01 X41.8663 Y5.3400 
G01 X41.6464 Y5.3400 
G01 X41.2348 Y5.5105 
G01 X40.9197 Y5.8256 
G01 X40.7492 Y6.2372 
G01 X40.7492 Y6.6828 
G01 X40.9197 Y7.0944 
G01 X41.2348 Y7.4095 
G01 X41.2536 Y7.4173 
G01 X41.2609 Y7.4184 
G01 X41.3212 Y7.4453 
G01 X41.3821 Y7.4705 
G01 X41.3880 Y7.4750 
G01 X41.3948 Y7.4780 
G01 X41.4460 Y7.5195 
G01 X41.4984 Y7.5597 
G01 X41.5029 Y7.5656 
G01 X41.5086 Y7.5702 
G01 X41.5474 Y7.6236 
G01 X41.5875 Y7.6759 
G01 X41.5904 Y7.6828 
G01 X41.5947 Y7.6888 
G01 X41.6184 Y7.7503 
G01 X41.6436 Y7.8113 
G01 X41.6446 Y7.8186 
G01 X41.6472 Y7.8255 
G01 X41.6541 Y7.8912 
G01 X41.6627 Y7.9565 
G01 X41.6618 Y7.9639 
G01 X41.6625 Y7.9712 
G01 X41.6522 Y8.0364 
G01 X41.6436 Y8.1018 
G01 X41.6408 Y8.1086 
G01 X41.6396 Y8.1159 
G01 X41.6128 Y8.1762 
G01 X41.6001 Y8.2068 
G01 X41.6254 Y8.1963 
G01 X41.7869 Y8.1642 
G01 X43.2723 Y8.1642 
G01 X43.4338 Y8.1963 
G01 X43.4591 Y8.2068 
G01 X43.4464 Y8.1762 
G01 X43.4196 Y8.1159 
G01 X43.4184 Y8.1086 
G01 X43.4156 Y8.1018 
G01 X43.4070 Y8.0364 
G01 X43.3967 Y7.9712 
G01 X43.3974 Y7.9639 
G01 X43.3965 Y7.9565 
G01 X43.4051 Y7.8912 
G01 X43.4120 Y7.8255 
G01 X43.4146 Y7.8186 
G01 X43.4156 Y7.8113 
G01 X43.4408 Y7.7503 
G01 X43.4645 Y7.6888 
G01 X43.4688 Y7.6828 
G01 X43.4717 Y7.6759 
G01 X43.5118 Y7.6236 
G01 X43.5506 Y7.5702 
G01 X43.5563 Y7.5656 
G01 X43.5608 Y7.5597 
G01 X43.6132 Y7.5195 
G01 X43.6644 Y7.4780 
G01 X43.6712 Y7.4750 
G01 X43.6771 Y7.4705 
G01 X43.7380 Y7.4453 
G01 X43.7983 Y7.4184 
G01 X43.8056 Y7.4173 
G01 X43.8244 Y7.4095 
G01 X44.1395 Y7.0944 
G01 X44.3100 Y6.6828 
G01 X44.3100 Y6.2372 
G01 X44.1371 Y5.8197 
G01 X44.1121 Y5.7765 
G01 X44.0685 Y5.7010 
G01 X44.0490 Y5.6280 
G01 X44.0306 Y5.5595 
G01 X44.0306 Y5.4867 
G01 X44.0306 Y5.4130 
G01 X44.0306 Y4.0228 
G01 X43.9026 Y3.7138 
G01 X41.9113 Y1.7225 
G01 X41.8599 Y1.6712 
G01 X41.8233 Y1.6081 
G01 X41.7864 Y1.5445 
G01 X41.7674 Y1.4742 
G01 X41.7483 Y1.4030 
G01 X41.7481 Y1.3298 
G01 X41.7480 Y1.2565 
G01 X41.7667 Y1.1865 
G01 X41.7857 Y1.1150 
G01 X41.8220 Y1.0519 
G01 X41.8588 Y0.9880 
G01 X41.9105 Y0.9361 
G01 X41.9622 Y0.8842 
G01 X42.0253 Y0.8476 
G01 X42.0889 Y0.8108 
G01 X42.1593 Y0.7918 
G01 X42.2304 Y0.7726 
G01 X42.3041 Y0.7725 
G01 X49.2616 Y0.7613 
G01 X49.3339 Y0.7612 
G01 X49.4077 Y0.7611 
G01 X49.4779 Y0.7798 
G01 X49.5492 Y0.7987 
G01 X49.6127 Y0.8352 
G01 X49.6762 Y0.8718 
G01 X49.7276 Y0.9230 
G01 X49.7800 Y0.9752 
G01 X49.8163 Y1.0379 
G01 X49.8535 Y1.1020 
G01 X49.8724 Y1.1723 
G01 X49.8916 Y1.2434 
G01 X49.8917 Y1.3167 
G01 X49.8918 Y1.3899 
G01 X49.8731 Y1.4602 
G01 X49.8541 Y1.5315 
G01 X49.8177 Y1.5949 
G01 X49.7811 Y1.6585 
G01 X49.7299 Y1.7099 
G01 X49.6777 Y1.7623 
G01 X48.0216 Y3.4182 
G01 X47.9180 Y3.5218 
G01 X46.4029 Y5.0369 
G01 X46.0328 Y5.4070 
G01 X45.8468 Y5.8560 
G01 X45.8468 Y11.2051 
G01 X45.8089 Y11.3466 
G01 X45.7378 Y11.4697 
G01 X45.7356 Y11.4735 
G01 X45.7315 Y11.4776 
G01 X45.2080 Y12.0011 
G01 X45.0812 Y12.0743 
G01 X44.9397 Y12.1122 
G01 X44.7931 Y12.1122 
G01 X44.6516 Y12.0743 
G01 X44.5248 Y12.0011 
G01 X44.4212 Y11.8975 
G01 X44.3479 Y11.7706 
G01 X44.3100 Y11.6291 
G01 X44.3100 Y11.3172 
G01 X44.1395 Y10.9056 
G01 X43.8244 Y10.5905 
G01 X43.8056 Y10.5827 
G01 X43.7983 Y10.5815 
G01 X43.7380 Y10.5547 
G01 X43.6771 Y10.5295 
G01 X43.6712 Y10.5250 
G01 X43.6644 Y10.5220 
G01 X43.6132 Y10.4805 
G01 X43.5608 Y10.4403 
G01 X43.5563 Y10.4344 
G01 X43.5506 Y10.4298 
G01 X43.5118 Y10.3764 
G01 X43.4717 Y10.3241 
G01 X43.4688 Y10.3172 
G01 X43.4645 Y10.3112 
G01 X43.4408 Y10.2497 
G01 X43.4156 Y10.1887 
G01 X43.4146 Y10.1814 
G01 X43.4120 Y10.1745 
G01 X43.4051 Y10.1088 
G01 X43.3965 Y10.0435 
G01 X43.3974 Y10.0361 
G01 X43.3967 Y10.0288 
G01 X43.4070 Y9.9636 
G01 X43.4156 Y9.8982 
G01 X43.4184 Y9.8914 
G01 X43.4196 Y9.8841 
G01 X43.4464 Y9.8238 
G01 X43.4591 Y9.7932 
G01 X43.4338 Y9.8037 
G01 X43.2723 Y9.8358 
G01 X41.7869 Y9.8358 
G01 X41.6254 Y9.8037 
G01 X41.6001 Y9.7932 
G01 X41.6128 Y9.8239 
G01 X41.6396 Y9.8841 
G01 X41.6408 Y9.8914 
G01 X41.6436 Y9.8982 
G01 X41.6522 Y9.9636 
G01 X41.6625 Y10.0288 
G01 X41.6618 Y10.0361 
G01 X41.6627 Y10.0435 
G01 X41.6541 Y10.1089 
G01 X41.6472 Y10.1745 
G01 X41.6446 Y10.1814 
G01 X41.6436 Y10.1887 
G01 X41.6183 Y10.2497 
G01 X41.5947 Y10.3112 
G01 X41.5904 Y10.3172 
G01 X41.5875 Y10.3241 
G01 X41.5474 Y10.3764 
G01 X41.5086 Y10.4298 
G01 X41.5029 Y10.4344 
G01 X41.4984 Y10.4403 
G01 X41.4460 Y10.4805 
G01 X41.3948 Y10.5220 
G01 X41.3880 Y10.5250 
G01 X41.3821 Y10.5295 
G01 X41.3211 Y10.5547 
G01 X41.2609 Y10.5815 
G01 X41.2536 Y10.5827 
G01 X41.2348 Y10.5905 
G01 X40.9197 Y10.9056 
G01 X40.9110 Y10.9266 
G01 X40.9015 Y10.9621 
G01 X40.8831 Y10.9939 
G01 X40.8690 Y11.0279 
G01 X40.8466 Y11.0571 
G01 X40.8282 Y11.0890 
G01 X40.8022 Y11.1150 
G01 X40.7798 Y11.1442 
G01 X40.7507 Y11.1666 
G01 X40.7246 Y11.1926 
G01 X40.6928 Y11.2109 
G01 X40.6636 Y11.2333 
G01 X40.6296 Y11.2474 
G01 X40.5978 Y11.2658 
G01 X40.5623 Y11.2753 
G01 X40.5283 Y11.2894 
G01 X40.4918 Y11.2942 
G01 X40.4563 Y11.3037 
G01 X40.4195 Y11.3037 
G01 X40.3830 Y11.3085 
G01 X40.3466 Y11.3037 
G01 X40.3098 Y11.3037 
G01 X40.2742 Y11.2942 
G01 X40.2378 Y11.2894 
G01 X40.2038 Y11.2753 
G01 X40.1682 Y11.2658 
G01 X40.1364 Y11.2474 
G01 X40.1024 Y11.2333 
G01 X40.0732 Y11.2109 
G01 X40.0414 Y11.1926 
G01 X40.0154 Y11.1666 
G01 X39.9862 Y11.1442 
G01 X39.9638 Y11.1150 
G01 X39.9378 Y11.0890 
G01 X39.9194 Y11.0571 
G01 X39.8970 Y11.0279 
G01 X39.8829 Y10.9939 
G01 X39.8645 Y10.9621 
G01 X39.8550 Y10.9266 
G01 X39.8409 Y10.8926 
G01 X39.8361 Y10.8561 
G01 X39.8266 Y10.8206 
G01 X39.8266 Y10.7838 
G01 X39.8218 Y10.7473 
G01 X39.8266 Y10.7109 
G01 X39.8266 Y9.3995 
G01 X38.8878 Y8.4608 
G01 X37.5602 Y8.4608 
G01 X36.6214 Y9.3995 
G01 X36.6214 Y10.7272 
G01 X37.2089 Y11.3146 
G01 X37.2821 Y11.4415 
G01 X37.3201 Y11.5830 
G01 X37.3201 Y14.3435 
G01 X37.3249 Y14.3800 
G01 X37.3201 Y14.4164 
G01 X37.3201 Y14.4532 
G01 X37.3105 Y14.4887 
G01 X37.3057 Y14.5252 
G01 X37.2916 Y14.5592 
G01 X37.2821 Y14.5947 
G01 X37.2638 Y14.6266 
G01 X37.1428 Y14.9185 
G01 X37.1428 Y18.0784 
G01 X37.1049 Y18.2199 
G01 X37.0317 Y18.3468 
G01 X36.9281 Y18.4504 
G01 X36.8012 Y18.5236 
G01 X36.6597 Y18.5615 
G01 X36.5132 Y18.5615 
G01 X36.3717 Y18.5236 
G01 X36.2448 Y18.4504 
G01 X36.1412 Y18.3468 
G01 X32.7525 Y14.9581 
G01 X30.3718 Y12.5773 
G01 X30.3702 Y12.5745 
G01 X30.2985 Y12.4504 
G01 X30.2622 Y12.3150 
G01 X30.2606 Y12.3089 
G01 X30.2606 Y11.2829 
G01 X30.2985 Y11.1414 
G01 X30.3718 Y11.0145 
G01 X30.4488 Y10.9375 
G01 X30.6336 Y10.4914 
G01 X30.6336 Y10.0086 
G01 X30.4488 Y9.5625 
G01 X30.1075 Y9.2212 
G01 X29.6614 Y9.0364 
G01 X29.1786 Y9.0364 
G01 X28.7325 Y9.2212 
G01 X28.5936 Y9.3601 
G01 X28.4916 Y9.4621 
G01 X28.3648 Y9.5353 
G01 X28.2628 Y9.5626 
G01 X28.2232 Y9.5732 
G01 X28.0767 Y9.5732 
G01 X27.9352 Y9.5353 
G01 X27.8636 Y9.4940 
G01 X27.8084 Y9.4621 
G01 X27.7048 Y9.3585 
G01 X27.5674 Y9.2212 
G01 X27.1214 Y9.0364 
G01 X26.6386 Y9.0364 
G01 X26.1925 Y9.2212 
G01 X25.8512 Y9.5625 
G01 X25.8427 Y9.5829 
G01 X25.8203 Y9.6121 
G01 X25.8019 Y9.6440 
G01 X25.7759 Y9.6700 
G01 X25.7535 Y9.6992 
G01 X25.7243 Y9.7216 
G01 X25.6983 Y9.7476 
G01 X25.6665 Y9.7660 
G01 X25.6373 Y9.7884 
G01 X25.6033 Y9.8024 
G01 X25.5714 Y9.8208 
G01 X25.5359 Y9.8303 
G01 X25.5020 Y9.8444 
G01 X25.4655 Y9.8492 
G01 X25.4299 Y9.8588 
G01 X25.3932 Y9.8588 
G01 X25.3567 Y9.8636 
G01 X25.3202 Y9.8588 
G01 X25.2834 Y9.8588 
G01 X25.2479 Y9.8492 
G01 X25.2115 Y9.8444 
G01 X25.1775 Y9.8304 
G01 X25.1715 Y9.8288 
G01 X25.2337 Y9.9789 
G01 X25.2694 Y10.1585 
G01 X25.2694 Y10.3415 
G01 X25.2337 Y10.5211 
G01 X25.1715 Y10.6712 
G01 X25.1775 Y10.6696 
G01 X25.2115 Y10.6556 
G01 X25.2479 Y10.6508 
G01 X25.2834 Y10.6412 
G01 X25.3202 Y10.6412 
G01 X25.3567 Y10.6364 
G01 X25.3932 Y10.6412 
G01 X25.4299 Y10.6412 
G01 X25.4655 Y10.6508 
G01 X25.5020 Y10.6556 
G01 X25.5359 Y10.6696 
G01 X25.5714 Y10.6792 
G01 X25.6033 Y10.6975 
G01 X25.6373 Y10.7116 
G01 X25.6665 Y10.7340 
G01 X25.6983 Y10.7524 
G01 X25.7243 Y10.7784 
G01 X25.7535 Y10.8008 
G01 X25.7759 Y10.8300 
G01 X25.8019 Y10.8560 
G01 X25.8203 Y10.8879 
G01 X25.8427 Y10.9170 
G01 X25.8512 Y10.9375 
G01 X25.9282 Y11.0145 
G01 X26.0015 Y11.1414 
G01 X26.0394 Y11.2829 
G01 X26.0394 Y12.4172 
G01 X26.1674 Y12.7262 
G01 X26.4784 Y13.0372 
G01 X29.4152 Y15.9740 
G01 X29.4707 Y16.0294 
G01 X29.5188 Y16.0776 
G01 X29.5920 Y16.2044 
G01 X29.6299 Y16.3459 
G01 X29.6299 Y16.4924 
G01 X29.6283 Y16.4985 
G01 X29.5920 Y16.6340 
G01 X29.5204 Y16.7580 
G01 X29.5188 Y16.7608 
G01 X29.4152 Y16.8644 
G01 X29.2883 Y16.9377 
G01 X29.1633 Y16.9712 
G01 X28.7066 Y17.1603 
G01 X28.5676 Y17.2993 
G01 X28.4656 Y17.4013 
G01 X28.3388 Y17.4745 
G01 X28.2368 Y17.5018 
G01 X28.1973 Y17.5124 
G01 X28.0508 Y17.5124 
G01 X27.9092 Y17.4745 
G01 X27.8376 Y17.4332 
G01 X27.7824 Y17.4013 
G01 X27.6788 Y17.2977 
G01 X27.5415 Y17.1603 
G01 X27.0954 Y16.9756 
G01 X26.6126 Y16.9756 
G01 X26.1666 Y17.1603 
G01 X25.8252 Y17.5017 
G01 X25.8167 Y17.5221 
G01 X25.7943 Y17.5513 
G01 X25.7759 Y17.5832 
G01 X25.7499 Y17.6092 
G01 X25.7275 Y17.6384 
G01 X25.6984 Y17.6608 
G01 X25.6723 Y17.6868 
G01 X25.6405 Y17.7052 
G01 X25.6113 Y17.7276 
G01 X25.5773 Y17.7416 
G01 X25.5455 Y17.7600 
G01 X25.5100 Y17.7695 
G01 X25.4760 Y17.7836 
G01 X25.4395 Y17.7884 
G01 X25.4040 Y17.7979 
G01 X25.3672 Y17.7979 
G01 X25.3307 Y17.8027 
G01 X25.2942 Y17.7979 
G01 X25.2574 Y17.7979 
G01 X25.2219 Y17.7884 
G01 X25.1855 Y17.7836 
G01 X25.1515 Y17.7695 
G01 X25.1455 Y17.7679 
G01 X25.2077 Y17.9181 
G01 X25.2434 Y18.0977 
G01 X25.2434 Y18.2807 
G01 X25.2077 Y18.4603 
G01 X25.1455 Y18.6104 
G01 X25.1515 Y18.6088 
G01 X25.1855 Y18.5948 
G01 X25.2219 Y18.5900 
G01 X25.2574 Y18.5804 
G01 X25.2942 Y18.5804 
G01 X25.3307 Y18.5756 
G01 X25.3672 Y18.5804 
G01 X25.4040 Y18.5804 
G01 X25.4395 Y18.5900 
G01 X25.4760 Y18.5948 
G01 X25.5100 Y18.6088 
G01 X25.5455 Y18.6183 
G01 X25.5773 Y18.6367 
G01 X25.6113 Y18.6508 
G01 X25.6405 Y18.6732 
G01 X25.6723 Y18.6916 
G01 X25.6984 Y18.7176 
G01 X25.7275 Y18.7400 
G01 X25.7499 Y18.7692 
G01 X25.7759 Y18.7952 
G01 X25.7943 Y18.8270 
G01 X25.8167 Y18.8562 
G01 X25.8252 Y18.8766 
G01 X26.1666 Y19.2180 
G01 X26.6126 Y19.4028 
G01 X26.7584 Y19.4028 
G01 X26.8999 Y19.4407 
G01 X27.0268 Y19.5140 
G01 X27.1304 Y19.6176 
G01 X27.9218 Y20.4089 
G01 X28.1847 Y20.6718 
G01 X28.4936 Y20.7998 
G01 X30.1325 Y20.7998 
G01 X30.2740 Y20.8377 
G01 X30.4009 Y20.9110 
G01 X30.5044 Y21.0146 
G01 X34.0482 Y24.5583 
G01 X34.1215 Y24.6852 
G01 X34.1594 Y24.8267 
G01 X34.1594 Y31.1568 
G01 X34.1642 Y31.1933 
G01 X34.1594 Y31.2298 
G01 X34.1594 Y31.2665 
G01 X34.1499 Y31.3021 
G01 X34.1451 Y31.3385 
G01 X34.1310 Y31.3725 
G01 X34.1215 Y31.4081 
G01 X34.1031 Y31.4399 
G01 X34.0890 Y31.4739 
G01 X34.0666 Y31.5031 
G01 X34.0482 Y31.5349 
G01 X34.0222 Y31.5609 
G01 X33.9998 Y31.5901 
G01 X33.9706 Y31.6125 
G01 X33.9446 Y31.6385 
G01 X33.9128 Y31.6569 
G01 X33.8836 Y31.6793 
G01 X33.8496 Y31.6934 
G01 X33.8178 Y31.7118 
G01 X33.7822 Y31.7213 
G01 X33.7482 Y31.7354 
G01 X33.7118 Y31.7402 
G01 X33.6763 Y31.7497 
G01 X33.6395 Y31.7497 
G01 X33.6030 Y31.7545 
G01 X33.5665 Y31.7497 
G01 X33.5297 Y31.7497 
G01 X33.4942 Y31.7402 
G01 X33.4577 Y31.7354 
G01 X33.4238 Y31.7213 
G01 X33.3882 Y31.7118 
G01 X33.3564 Y31.6934 
G01 X33.3224 Y31.6793 
G01 X33.2932 Y31.6569 
G01 X33.2614 Y31.6385 
G01 X33.2354 Y31.6125 
G01 X33.2062 Y31.5901 
G01 X33.1838 Y31.5609 
G01 X33.1578 Y31.5349 
G01 X33.1394 Y31.5031 
G01 X33.1170 Y31.4739 
G01 X33.1029 Y31.4399 
G01 X33.0845 Y31.4081 
G01 X33.0750 Y31.3725 
G01 X33.0379 Y31.2829 
G01 X32.6371 Y30.8821 
G01 X32.1134 Y30.6652 
G01 X31.5466 Y30.6652 
G01 X31.0229 Y30.8821 
G01 X30.6221 Y31.2829 
G01 X30.4052 Y31.8066 
G01 X30.4052 Y32.3734 
G01 X30.6282 Y32.9119 
G01 X30.6499 Y32.9494 
G01 X30.6896 Y33.0182 
G01 X30.7086 Y33.0892 
G01 X30.7276 Y33.1597 
G01 X30.7276 Y33.2326 
G01 X30.7276 Y33.3062 
G01 X30.7136 Y33.3583 
G01 X30.6897 Y33.4477 
G01 X30.6604 Y33.4985 
G01 X30.6164 Y33.5746 
G01 X30.5753 Y33.6157 
G01 X30.5128 Y33.6782 
G01 X30.4548 Y33.7117 
G01 X30.3860 Y33.7515 
G01 X30.3150 Y33.7705 
G01 X30.2445 Y33.7894 
G01 X30.1716 Y33.7894 
G01 X30.0980 Y33.7894 
G01 X23.1354 Y33.7894 
G01 X22.9939 Y33.7515 
G01 X22.8670 Y33.6782 
G01 X22.7634 Y33.5746 
G01 X18.9518 Y29.7630 
G01 X18.8785 Y29.6361 
G01 X18.8406 Y29.4946 
G01 X18.8406 Y15.6832 
G01 X18.7126 Y15.3742 
G01 X16.6909 Y13.3525 
G01 X16.6176 Y13.2256 
G01 X16.5797 Y13.0841 
G01 X16.5797 Y10.5698 
G01 X16.2806 Y9.8478 
G01 X15.7280 Y9.2951 
G01 X15.0059 Y8.9961 
G01 X14.2053 Y8.9961 
G01 X14.1968 Y8.9972 
G01 X14.1613 Y9.0067 
G01 X14.1245 Y9.0067 
G01 X14.0880 Y9.0115 
G01 X14.0516 Y9.0067 
G01 X14.0148 Y9.0067 
G01 X13.9792 Y8.9972 
G01 X13.9428 Y8.9924 
G01 X13.9088 Y8.9783 
G01 X13.8733 Y8.9688 
G01 X13.8414 Y8.9504 
G01 X13.8074 Y8.9363 
G01 X13.7783 Y8.9139 
G01 X13.7464 Y8.8955 
G01 X13.7204 Y8.8695 
G01 X13.6912 Y8.8472 
G01 X13.6688 Y8.8180 
G01 X13.6428 Y8.7919 
G01 X13.6244 Y8.7601 
G01 X13.6020 Y8.7309 
G01 X13.5879 Y8.6969 
G01 X13.5695 Y8.6651 
G01 X13.5600 Y8.6296 
G01 X13.5459 Y8.5956 
G01 X13.5411 Y8.5591 
G01 X13.5316 Y8.5236 
G01 X13.5316 Y8.4868 
G01 X13.5268 Y8.4503 
G01 X13.5316 Y8.4139 
G01 X13.5316 Y8.3770 
G01 X13.5411 Y8.3415 
G01 X13.5459 Y8.3051 
G01 X13.5600 Y8.2711 
G01 X13.5695 Y8.2355 
G01 X13.5879 Y8.2037 
G01 X13.6020 Y8.1697 
G01 X13.6244 Y8.1405 
G01 X13.6428 Y8.1087 
G01 X13.6688 Y8.0827 
G01 X13.6912 Y8.0535 
G01 X13.7204 Y8.0311 
G01 X13.8513 Y7.9001 
G01 X13.9793 Y7.5912 
G01 X13.9793 Y7.2278 
G01 X14.0172 Y7.0863 
G01 X14.0905 Y6.9594 
G01 X14.1941 Y6.8558 
G01 X14.4534 Y6.5965 
G01 X14.5802 Y6.5232 
G01 X14.7218 Y6.4853 
G01 X16.7099 Y6.4853 
G01 X16.8514 Y6.5232 
G01 X16.9783 Y6.5965 
G01 X17.0819 Y6.7001 
G01 X17.5329 Y7.1511 
G01 X18.2550 Y7.4502 
G01 X21.6537 Y7.4502 
G01 X21.7892 Y7.4865 
G01 X21.7952 Y7.4881 
G01 X21.7980 Y7.4897 
G01 X21.9221 Y7.5614 
G01 X22.0240 Y7.6633 
G01 X22.0279 Y7.6688 
G01 X22.0989 Y7.7918 
G01 X22.1362 Y7.9311 
G01 X22.1368 Y8.0799 
G01 X22.1005 Y8.2153 
G01 X22.0989 Y8.2214 
G01 X22.0973 Y8.2242 
G01 X22.0257 Y8.3482 
G01 X21.4487 Y8.9252 
G01 X21.3218 Y8.9985 
G01 X21.1803 Y9.0364 
G01 X20.9546 Y9.0364 
G01 X20.7857 Y9.1064 
G01 X20.6564 Y9.2357 
G01 X20.5864 Y9.4046 
G01 X20.5864 Y11.0954 
G01 X20.6564 Y11.2643 
G01 X20.8222 Y11.4302 
G01 X20.8955 Y11.5571 
G01 X20.9334 Y11.6986 
G01 X20.9334 Y16.7146 
G01 X20.8955 Y16.8561 
G01 X20.8222 Y16.9830 
G01 X20.7187 Y17.0866 
G01 X20.6304 Y17.1748 
G01 X20.5604 Y17.3438 
G01 X20.5604 Y19.0346 
G01 X20.6304 Y19.2035 
G01 X20.7597 Y19.3328 
G01 X20.9286 Y19.4028 
G01 X22.6194 Y19.4028 
G01 X22.7884 Y19.3328 
G01 X22.9176 Y19.2035 
G01 X22.9631 Y19.0939 
G01 X22.9867 Y19.0323 
G01 X22.9911 Y19.0263 
G01 X22.9939 Y19.0195 
G01 X23.0340 Y18.9672 
G01 X23.0728 Y18.9138 
G01 X23.0786 Y18.9091 
G01 X23.0831 Y18.9032 
G01 X23.1354 Y18.8631 
G01 X23.1867 Y18.8216 
G01 X23.1934 Y18.8186 
G01 X23.1993 Y18.8141 
G01 X23.2603 Y18.7888 
G01 X23.3205 Y18.7620 
G01 X23.3278 Y18.7608 
G01 X23.3346 Y18.7580 
G01 X23.4001 Y18.7494 
G01 X23.4652 Y18.7391 
G01 X23.4726 Y18.7398 
G01 X23.4799 Y18.7389 
G01 X23.5452 Y18.7475 
G01 X23.5711 Y18.7502 
G01 X23.4904 Y18.6294 
G01 X23.4203 Y18.4603 
G01 X23.3846 Y18.2807 
G01 X23.3846 Y18.0977 
G01 X23.4203 Y17.9181 
G01 X23.4904 Y17.7490 
G01 X23.5711 Y17.6282 
G01 X23.5452 Y17.6309 
G01 X23.4799 Y17.6395 
G01 X23.4726 Y17.6385 
G01 X23.4652 Y17.6393 
G01 X23.4000 Y17.6290 
G01 X23.3346 Y17.6204 
G01 X23.3278 Y17.6176 
G01 X23.3205 Y17.6164 
G01 X23.2603 Y17.5896 
G01 X23.1993 Y17.5643 
G01 X23.1934 Y17.5598 
G01 X23.1867 Y17.5568 
G01 X23.1354 Y17.5153 
G01 X23.0831 Y17.4751 
G01 X23.0786 Y17.4693 
G01 X23.0728 Y17.4646 
G01 X23.0340 Y17.4112 
G01 X22.9939 Y17.3589 
G01 X22.9911 Y17.3521 
G01 X22.9867 Y17.3461 
G01 X22.9631 Y17.2845 
G01 X22.9176 Y17.1748 
G01 X22.7258 Y16.9830 
G01 X22.6525 Y16.8561 
G01 X22.6146 Y16.7146 
G01 X22.6146 Y11.7506 
G01 X22.6525 Y11.6091 
G01 X22.7258 Y11.4822 
G01 X22.8294 Y11.3786 
G01 X22.9436 Y11.2643 
G01 X22.9890 Y11.1547 
G01 X23.0127 Y11.0931 
G01 X23.0170 Y11.0871 
G01 X23.0199 Y11.0803 
G01 X23.0600 Y11.0280 
G01 X23.0988 Y10.9746 
G01 X23.1046 Y10.9699 
G01 X23.1091 Y10.9640 
G01 X23.1614 Y10.9239 
G01 X23.2127 Y10.8824 
G01 X23.2194 Y10.8794 
G01 X23.2253 Y10.8749 
G01 X23.2862 Y10.8496 
G01 X23.3465 Y10.8228 
G01 X23.3538 Y10.8216 
G01 X23.3606 Y10.8188 
G01 X23.4260 Y10.8102 
G01 X23.4912 Y10.7999 
G01 X23.4986 Y10.8006 
G01 X23.5059 Y10.7997 
G01 X23.5712 Y10.8083 
G01 X23.5971 Y10.8110 
G01 X23.5164 Y10.6902 
G01 X23.4463 Y10.5211 
G01 X23.4106 Y10.3415 
G01 X23.4106 Y10.1585 
G01 X23.4463 Y9.9789 
G01 X23.5164 Y9.8098 
G01 X23.6181 Y9.6575 
G01 X23.7475 Y9.5281 
G01 X23.7836 Y9.5040 
G01 X23.7836 Y9.2116 
G01 X23.7807 Y9.1516 
G01 X23.7836 Y9.1385 
G01 X23.7836 Y9.1251 
G01 X23.7991 Y9.0671 
G01 X23.8119 Y9.0085 
G01 X23.8180 Y8.9965 
G01 X23.8215 Y8.9836 
G01 X23.8515 Y8.9316 
G01 X23.8790 Y8.8783 
G01 X23.8880 Y8.8683 
G01 X23.8948 Y8.8567 
G01 X23.9372 Y8.8143 
G01 X23.9776 Y8.7698 
G01 X23.9889 Y8.7626 
G01 X23.9984 Y8.7531 
G01 X24.2009 Y8.5506 
G01 X24.2321 Y8.5194 
G01 X24.2598 Y8.4851 
G01 X24.2837 Y8.4678 
G01 X25.3831 Y7.3684 
G01 X25.5110 Y7.0594 
G01 X25.5110 Y4.7681 
G01 X25.3831 Y4.4591 
G01 X25.0166 Y4.0926 
G01 X23.4389 Y2.5150 
G01 X23.1760 Y2.2521 
G01 X22.8671 Y2.1241 
G01 X17.4343 Y2.1241 
G01 X17.1254 Y2.2521 
G01 X16.7588 Y2.6186 
G01 X16.4370 Y2.9405 
G01 X16.3101 Y3.0137 
G01 X16.1686 Y3.0516 
G01 X14.9449 Y3.0516 
G01 X14.8034 Y3.0137 
G01 X14.6765 Y2.9405 
G01 X14.5729 Y2.8369 
G01 X14.5092 Y2.7731 
G01 X14.2002 Y2.6451 
G01 X10.9097 Y2.6451 
G01 X10.6008 Y2.7731 
G01 X10.2343 Y3.1396 
G01 X8.9578 Y4.4161 
G01 X8.8298 Y4.7250 
G01 X8.8298 Y11.6836 
G01 X8.9578 Y11.9925 
G01 X9.2023 Y12.2370 
G01 X9.2756 Y12.3639 
G01 X9.3135 Y12.5054 
G01 X9.3135 Y30.9735 
G01 X9.3183 Y31.0100 
G01 X9.3135 Y31.0465 
G01 X9.3135 Y31.0832 
G01 X9.3039 Y31.1188 
G01 X9.2991 Y31.1553 
G01 X9.2851 Y31.1892 
G01 X9.2756 Y31.2247 
G01 X9.2572 Y31.2566 
G01 X9.2431 Y31.2906 
G01 X9.2207 Y31.3198 
G01 X9.2023 Y31.3516 
G01 X9.1763 Y31.3776 
G01 X9.1539 Y31.4068 
G01 X9.1247 Y31.4292 
G01 X9.0987 Y31.4552 
G01 X9.0668 Y31.4736 
G01 X9.0377 Y31.4960 
G01 X9.0037 Y31.5101 
G01 X8.9718 Y31.5285 
G01 X8.9363 Y31.5380 
G01 X8.9023 Y31.5521 
G01 X8.8659 Y31.5569 
G01 X8.8303 Y31.5664 
G01 X8.7935 Y31.5664 
G01 X8.7570 Y31.5712 
G01 X8.7206 Y31.5664 
G01 X8.6838 Y31.5664 
G01 X8.6483 Y31.5569 
G01 X8.6118 Y31.5521 
G01 X8.5778 Y31.5380 
G01 X8.5423 Y31.5285 
G01 X8.5104 Y31.5101 
G01 X8.4764 Y31.4960 
G01 X8.4473 Y31.4736 
G01 X8.4154 Y31.4552 
G01 X8.3894 Y31.4292 
G01 X8.3602 Y31.4068 
G01 X8.3378 Y31.3776 
G01 X8.3118 Y31.3516 
G01 X8.2934 Y31.3198 
G01 X8.2710 Y31.2906 
G01 X8.2679 Y31.2829 
G01 X7.8671 Y30.8821 
G01 X7.3434 Y30.6652 
G01 X6.7766 Y30.6652 
G01 X6.2529 Y30.8821 
G01 X5.8521 Y31.2829 
G01 X5.6352 Y31.8066 
G01 X5.6352 Y32.3734 
G01 X5.8521 Y32.8971 
G01 X5.8698 Y32.9148 
G01 X5.9718 Y33.0168 
G01 X6.0254 Y33.1085 
G01 X6.0466 Y33.1452 
G01 X6.0638 Y33.2093 
G01 X6.0846 Y33.2867 
G01 X6.0846 Y33.4333 
G01 X6.0466 Y33.5748 
G01 X5.9734 Y33.7016 
G01 X5.8521 Y33.8229 
G01 X5.6352 Y34.3466 
G01 X5.6352 Y34.9134 
G01 X5.8521 Y35.4371 
G01 X5.8698 Y35.4548 
G01 X5.9718 Y35.5568 
G01 X6.0254 Y35.6485 
G01 X6.0466 Y35.6852 
G01 X6.0638 Y35.7493 
G01 X6.0846 Y35.8267 
G01 X6.0846 Y35.9733 
G01 X6.0466 Y36.1148 
G01 X5.9734 Y36.2416 
G01 X5.8521 Y36.3629 
G01 X5.6352 Y36.8866 
G01 X5.6352 Y37.4534 
G01 X5.8521 Y37.9771 
G01 X5.8698 Y37.9948 
G01 X5.9718 Y38.0968 
G01 X6.0254 Y38.1885 
G01 X6.0466 Y38.2252 
G01 X6.0638 Y38.2893 
G01 X6.0846 Y38.3667 
G01 X6.0846 Y38.5133 
G01 X6.0466 Y38.6548 
G01 X5.9734 Y38.7816 
G01 X5.8521 Y38.9029 
G01 X5.6352 Y39.4266 
G01 X5.6352 Y39.9934 
G01 X5.8521 Y40.5171 
G01 X5.8698 Y40.5348 
G01 X5.9718 Y40.6368 
G01 X6.0254 Y40.7285 
G01 X6.0466 Y40.7652 
G01 X6.0638 Y40.8293 
G01 X6.0846 Y40.9067 
G01 X6.0846 Y41.0533 
G01 X6.0466 Y41.1948 
G01 X5.9734 Y41.3216 
G01 X5.8521 Y41.4429 
G01 X5.6352 Y41.9666 
G01 X5.6352 Y42.5334 
G01 X5.8521 Y43.0571 
G01 X5.8698 Y43.0748 
G01 X5.9718 Y43.1768 
G01 X6.0254 Y43.2685 
G01 X6.0466 Y43.3052 
G01 X6.0638 Y43.3693 
G01 X6.0846 Y43.4467 
G01 X6.0846 Y43.5933 
G01 X6.0466 Y43.7348 
G01 X5.9734 Y43.8616 
G01 X5.8521 Y43.9829 
G01 X5.6352 Y44.5066 
G01 X5.6352 Y45.0734 
G01 X5.8521 Y45.5971 
G01 X5.8698 Y45.6148 
G01 X5.9718 Y45.7168 
G01 X6.0254 Y45.8085 
G01 X6.0466 Y45.8452 
G01 X6.0638 Y45.9093 
G01 X6.0846 Y45.9867 
G01 X6.0846 Y46.1333 
G01 X6.0466 Y46.2748 
G01 X5.9734 Y46.4016 
G01 X5.8521 Y46.5229 
G01 X5.6352 Y47.0466 
G01 X5.6352 Y47.6134 
G01 X5.8521 Y48.1371 
G01 X5.8698 Y48.1548 
G01 X5.9718 Y48.2568 
G01 X6.0254 Y48.3484 
G01 X6.0466 Y48.3852 
G01 X6.0638 Y48.4493 
G01 X6.0846 Y48.5267 
G01 X6.0846 Y48.6733 
G01 X6.0466 Y48.8148 
G01 X5.9734 Y48.9416 
G01 X5.8521 Y49.0629 
G01 X5.6352 Y49.5866 
G01 X5.6352 Y50.1534 
G01 X5.8521 Y50.6771 
G01 X5.8698 Y50.6948 
G01 X5.9718 Y50.7968 
G01 X6.0254 Y50.8885 
G01 X6.0466 Y50.9252 
G01 X6.0638 Y50.9893 
G01 X6.0846 Y51.0667 
G01 X6.0846 Y51.2133 
G01 X6.0466 Y51.3548 
G01 X5.9734 Y51.4816 
G01 X5.8521 Y51.6029 
G01 X5.6352 Y52.1266 
G01 X5.6352 Y52.6934 
G01 X5.8521 Y53.2171 
G01 X5.8698 Y53.2348 
G01 X5.9718 Y53.3368 
G01 X6.0254 Y53.4285 
G01 X6.0466 Y53.4652 
G01 X6.0638 Y53.5293 
G01 X6.0846 Y53.6067 
G01 X6.0846 Y53.7533 
G01 X6.0466 Y53.8948 
G01 X5.9734 Y54.0216 
G01 X5.8521 Y54.1429 
G01 X5.6352 Y54.6666 
G01 X5.6352 Y55.2334 
G01 X5.8521 Y55.7571 
G01 X5.8698 Y55.7748 
G01 X5.9718 Y55.8768 
G01 X6.0254 Y55.9685 
G01 X6.0466 Y56.0052 
G01 X6.0638 Y56.0693 
G01 X6.0846 Y56.1467 
G01 X6.0846 Y56.2933 
G01 X6.0466 Y56.4348 
G01 X5.9734 Y56.5616 
G01 X5.8521 Y56.6829 
G01 X5.6352 Y57.2066 
G01 X5.6352 Y57.7734 
G01 X5.8521 Y58.2971 
G01 X5.8698 Y58.3148 
G01 X5.9718 Y58.4168 
G01 X6.0254 Y58.5085 
G01 X6.0466 Y58.5452 
G01 X6.0638 Y58.6093 
G01 X6.0846 Y58.6867 
G01 X6.0846 Y58.8333 
G01 X6.0466 Y58.9748 
G01 X5.9734 Y59.1016 
G01 X5.8521 Y59.2229 
G01 X5.6352 Y59.7466 
G01 X5.6352 Y60.3134 
G01 X5.8521 Y60.8371 
G01 X5.8698 Y60.8548 
G01 X5.9718 Y60.9568 
G01 X6.0254 Y61.0485 
G01 X6.0466 Y61.0852 
G01 X6.0638 Y61.1493 
G01 X6.0846 Y61.2267 
G01 X6.0846 Y61.3733 
G01 X6.0466 Y61.5148 
G01 X5.9734 Y61.6416 
G01 X5.8521 Y61.7629 
G01 X5.6352 Y62.2866 
G01 X5.6352 Y62.8534 
G01 X5.8521 Y63.3771 
G01 X6.1667 Y63.6917 
G01 X6.1905 Y63.7090 
G01 X6.2182 Y63.7432 
G01 X6.2494 Y63.7744 
G01 X6.2642 Y63.7999 
G01 X6.2827 Y63.8228 
G01 X6.3006 Y63.8631 
G01 X6.3227 Y63.9013 
G01 X6.3303 Y63.9297 
G01 X6.3423 Y63.9567 
G01 X6.3463 Y63.9817 
G01 X6.4866 Y64.1220 
G01 X6.6222 Y64.0530 
G01 X6.7929 Y63.9975 
G01 X6.9702 Y63.9694 
G01 X7.1498 Y63.9694 
G01 X7.3271 Y63.9975 
G01 X7.4978 Y64.0530 
G01 X7.6578 Y64.1345 
G01 X7.7657 Y64.2129 
G01 X7.7594 Y64.1893 
G01 X7.7594 Y64.1452 
G01 X7.7548 Y64.1014 
G01 X7.7594 Y64.0722 
G01 X7.7594 Y64.0428 
G01 X7.7708 Y64.0002 
G01 X7.7777 Y63.9567 
G01 X7.7897 Y63.9297 
G01 X7.7973 Y63.9013 
G01 X7.8194 Y63.8631 
G01 X7.8373 Y63.8228 
G01 X7.8558 Y63.7999 
G01 X7.8706 Y63.7744 
G01 X7.9018 Y63.7432 
G01 X7.9295 Y63.7090 
G01 X7.9533 Y63.6917 
G01 X8.2679 Y63.3771 
G01 X8.4848 Y62.8534 
G01 X8.4848 Y62.2866 
G01 X8.2679 Y61.7629 
G01 X8.1466 Y61.6416 
G01 X8.0734 Y61.5148 
G01 X8.0354 Y61.3733 
G01 X8.0354 Y61.2267 
G01 X8.0553 Y61.1525 
G01 X8.0734 Y61.0852 
G01 X8.0914 Y61.0540 
G01 X8.1466 Y60.9584 
G01 X8.2502 Y60.8548 
G01 X8.2679 Y60.8371 
G01 X8.4848 Y60.3134 
G01 X8.4848 Y59.7466 
G01 X8.2679 Y59.2229 
G01 X8.1466 Y59.1016 
G01 X8.0734 Y58.9748 
G01 X8.0354 Y58.8333 
G01 X8.0354 Y58.6867 
G01 X8.0553 Y58.6125 
G01 X8.0734 Y58.5452 
G01 X8.0914 Y58.5140 
G01 X8.1466 Y58.4184 
G01 X8.2502 Y58.3148 
G01 X8.2679 Y58.2971 
G01 X8.4848 Y57.7734 
G01 X8.4848 Y57.2066 
G01 X8.2679 Y56.6829 
G01 X8.1466 Y56.5616 
G01 X8.0734 Y56.4348 
G01 X8.0354 Y56.2933 
G01 X8.0354 Y56.1467 
G01 X8.0553 Y56.0725 
G01 X8.0734 Y56.0052 
G01 X8.0914 Y55.9740 
G01 X8.1466 Y55.8784 
G01 X8.2502 Y55.7748 
G01 X8.2679 Y55.7571 
G01 X8.4848 Y55.2334 
G01 X8.4848 Y54.6666 
G01 X8.2679 Y54.1429 
G01 X8.1466 Y54.0216 
G01 X8.0734 Y53.8948 
G01 X8.0354 Y53.7533 
G01 X8.0354 Y53.6067 
G01 X8.0553 Y53.5325 
G01 X8.0734 Y53.4652 
G01 X8.0914 Y53.4340 
G01 X8.1466 Y53.3384 
G01 X8.2502 Y53.2348 
G01 X8.2679 Y53.2171 
G01 X8.4848 Y52.6934 
G01 X8.4848 Y52.1266 
G01 X8.2618 Y51.5881 
G01 X8.2307 Y51.5344 
G01 X8.2004 Y51.4818 
G01 X8.1769 Y51.3944 
G01 X8.1624 Y51.3403 
G01 X8.1624 Y51.2529 
G01 X8.1624 Y51.1938 
G01 X8.1803 Y51.1272 
G01 X8.2003 Y51.0523 
G01 X8.2386 Y50.9860 
G01 X8.2736 Y50.9254 
G01 X8.3263 Y50.8727 
G01 X8.3772 Y50.8218 
G01 X8.4514 Y50.7789 
G01 X8.5040 Y50.7485 
G01 X8.5914 Y50.7251 
G01 X8.6455 Y50.7106 
G01 X8.7329 Y50.7106 
G01 X8.7920 Y50.7106 
G01 X17.4619 Y50.7106 
G01 X17.6035 Y50.7485 
G01 X17.7303 Y50.8218 
G01 X17.8339 Y50.9254 
G01 X21.8572 Y54.9487 
G01 X21.9305 Y55.0755 
G01 X21.9684 Y55.2171 
G01 X21.9684 Y66.9032 
G01 X22.0964 Y67.2121 
G01 X28.0220 Y73.1378 
G01 X28.3310 Y73.2658 
G01 X33.9752 Y73.2658 
G01 X34.2841 Y73.1378 
G01 X34.5470 Y72.8749 
G01 X34.6506 Y72.7713 
G01 X35.4357 Y71.9863 
G01 X35.4580 Y71.9572 
G01 X35.4871 Y71.9348 
G01 X37.9701 Y69.4518 
G01 X38.0981 Y69.1429 
G01 X38.0981 Y57.1262 
G01 X38.1360 Y56.9847 
G01 X38.2093 Y56.8578 
G01 X38.3065 Y56.7606 
G01 X44.3461 Y50.7210 
G01 X44.3525 Y50.7146 
G01 X44.4497 Y50.6174 
G01 X44.7126 Y50.3545 
G01 X44.8406 Y50.0455 
G01 X44.8406 Y43.7255 
G01 X44.8769 Y43.5900 
G01 X44.8785 Y43.5840 
G01 X44.8801 Y43.5812 
G01 X44.9518 Y43.4571 
G01 X45.0554 Y43.3535 
G01 X45.1822 Y43.2803 
G01 X45.3215 Y43.2430 
G01 X45.4703 Y43.2424 
G01 X45.6057 Y43.2787 
G01 X45.6118 Y43.2803 
G01 X45.6146 Y43.2819 
G01 X45.7386 Y43.3535 
G01 X45.9700 Y43.5849 
G01 X46.8904 Y43.5849 
G01 X47.0259 Y43.6212 
G01 X47.0319 Y43.6228 
G01 X47.0347 Y43.6244 
G01 X47.1588 Y43.6961 
G01 X48.3167 Y44.8539 
G01 X48.6256 Y44.9819 
G01 X55.3153 Y44.9819 
G01 X55.6243 Y44.8539 
G01 X55.9908 Y44.4874 
G01 X56.8625 Y43.6157 
G01 X57.1254 Y43.3527 
G01 X57.2534 Y43.0438 
G01 X57.2534 Y42.5054 
G01 X57.2913 Y42.3639 
G01 X57.3646 Y42.2370 
G01 X57.4682 Y42.1334 
G01 X59.3402 Y40.2614 
G01 X59.4671 Y40.1882 
G01 X59.6086 Y40.1503 
G01 X60.8576 Y40.1503 
G01 X61.1665 Y40.0223 
G01 X61.5330 Y39.6558 
G01 X62.7770 Y38.4118 
G01 X62.9039 Y38.3385 
G01 X63.0454 Y38.3006 
G01 X64.2406 Y38.3006 
G01 X64.3821 Y38.3385 
G01 X64.3849 Y38.3401 
G01 X64.5090 Y38.4118 
G01 X64.6110 Y38.5137 
G01 X64.6858 Y38.6422 
G01 X64.7237 Y38.7837 
G01 X64.7237 Y38.9302 
G01 X64.6858 Y39.0718 
G01 X64.6842 Y39.0746 
G01 X64.6126 Y39.1986 
G01 X62.6539 Y41.1573 
G01 X62.2874 Y41.5238 
G01 X62.1594 Y41.8328 
G01 X62.1594 Y58.1672 
G01 X62.2874 Y58.4762 
G01 X66.2028 Y62.3916 
G01 X66.2761 Y62.5185 
G01 X66.3140 Y62.6600 
G01 X66.3140 Y62.8065 
G01 X66.3140 Y66.4230 
G00 Z2.4000 
G00 X104.4862 Y11.5805 
G01 Z-0.1000 F50.00 
G01 X104.4497 Y11.5757 F100.00 
G01 X104.4129 Y11.5757 
G01 X104.3774 Y11.5662 
G01 X104.3409 Y11.5614 
G01 X104.3069 Y11.5473 
G01 X104.2813 Y11.5404 
G01 X103.7097 Y11.5404 
G01 X103.1732 Y11.7626 
G01 X100.2992 Y14.6366 
G01 X99.7774 Y15.1584 
G01 X99.6506 Y15.2316 
G01 X99.5091 Y15.2695 
G01 X99.3625 Y15.2695 
G01 X99.2210 Y15.2316 
G01 X99.0942 Y15.1584 
G01 X98.9906 Y15.0548 
G01 X98.9173 Y14.9279 
G01 X98.8794 Y14.7864 
G01 X98.8794 Y11.3948 
G01 X98.8746 Y11.3583 
G01 X98.8794 Y11.3219 
G01 X98.8794 Y11.2851 
G01 X98.8889 Y11.2496 
G01 X98.8937 Y11.2131 
G01 X98.9078 Y11.1791 
G01 X98.9173 Y11.1436 
G01 X98.9357 Y11.1117 
G01 X98.9810 Y11.0024 
G01 X98.9810 Y10.5164 
G01 X98.7950 Y10.0674 
G01 X90.3796 Y1.6520 
G01 X90.3731 Y1.6455 
G01 X90.3207 Y1.5932 
G01 X90.2841 Y1.5302 
G01 X90.2472 Y1.4665 
G01 X90.2283 Y1.3963 
G01 X90.2091 Y1.3250 
G01 X90.2089 Y1.2519 
G01 X90.2088 Y1.1785 
G01 X90.2277 Y1.1076 
G01 X90.2465 Y1.0369 
G01 X90.2829 Y0.9737 
G01 X90.3196 Y0.9100 
G01 X90.3706 Y0.8587 
G01 X90.4230 Y0.8062 
G01 X90.4860 Y0.7697 
G01 X90.5497 Y0.7327 
G01 X90.6199 Y0.7138 
G01 X90.6912 Y0.6946 
G01 X90.7649 Y0.6945 
G01 X116.1561 Y0.6536 
G01 X116.2284 Y0.6535 
G01 X116.3022 Y0.6534 
G01 X116.3724 Y0.6721 
G01 X116.4437 Y0.6911 
G01 X116.5072 Y0.7275 
G01 X116.5707 Y0.7641 
G01 X116.6221 Y0.8153 
G01 X116.6745 Y0.8675 
G01 X116.7108 Y0.9302 
G01 X116.7479 Y0.9943 
G01 X116.7669 Y1.0646 
G01 X116.7861 Y1.1357 
G01 X116.7862 Y1.2090 
G01 X116.7863 Y1.2822 
G01 X116.7862 Y5.8689 
G01 X116.7499 Y6.0044 
G01 X116.7483 Y6.0104 
G01 X116.7467 Y6.0132 
G01 X116.6750 Y6.1373 
G01 X116.5714 Y6.2409 
G01 X116.4446 Y6.3142 
G01 X116.3053 Y6.3515 
G01 X116.1565 Y6.3521 
G01 X116.0211 Y6.3158 
G01 X116.0150 Y6.3142 
G01 X116.0122 Y6.3125 
G01 X115.8882 Y6.2409 
G01 X115.5024 Y5.8552 
G01 X114.9687 Y5.5470 
G01 X114.3734 Y5.3875 
G01 X113.7571 Y5.3875 
G01 X113.1618 Y5.5470 
G01 X112.6281 Y5.8552 
G01 X112.1923 Y6.2910 
G01 X111.8842 Y6.8247 
G01 X111.7247 Y7.4200 
G01 X111.7247 Y8.0363 
G01 X111.8842 Y8.6316 
G01 X112.1923 Y9.1653 
G01 X112.6281 Y9.6011 
G01 X113.1618 Y9.9092 
G01 X113.7571 Y10.0687 
G01 X114.3734 Y10.0687 
G01 X114.9687 Y9.9092 
G01 X115.5024 Y9.6011 
G01 X115.8882 Y9.2154 
G01 X116.0150 Y9.1421 
G01 X116.1565 Y9.1042 
G01 X116.3030 Y9.1042 
G01 X116.4446 Y9.1421 
G01 X116.5714 Y9.2154 
G01 X116.6750 Y9.3190 
G01 X116.7483 Y9.4458 
G01 X116.7862 Y9.5873 
G01 X116.7862 Y18.3663 
G01 X116.7483 Y18.5078 
G01 X116.6750 Y18.6347 
G01 X116.5714 Y18.7383 
G01 X116.4446 Y18.8116 
G01 X116.3030 Y18.8495 
G01 X116.1565 Y18.8495 
G01 X116.0150 Y18.8116 
G01 X115.8882 Y18.7383 
G01 X115.7846 Y18.6347 
G01 X109.3848 Y12.2349 
G01 X108.9477 Y11.7979 
G01 X108.4113 Y11.5757 
G01 X104.5226 Y11.5757 
G01 X104.4862 Y11.5805 
G00 Z2.4000 
G00 X30.0979 Y50.7106 
G01 Z-0.1000 F50.00 
G01 X30.0980 Y50.7106 F100.00 
G01 X30.1708 Y50.7106 
G01 X30.2444 Y50.7106 
G01 X30.3141 Y50.7293 
G01 X30.3859 Y50.7485 
G01 X30.4539 Y50.7878 
G01 X30.5128 Y50.8218 
G01 X30.5747 Y50.8836 
G01 X30.6164 Y50.9254 
G01 X30.6599 Y51.0007 
G01 X30.6896 Y51.0522 
G01 X30.7134 Y51.1409 
G01 X30.7276 Y51.1937 
G01 X30.7276 Y51.2666 
G01 X30.7276 Y51.3402 
G01 X30.7089 Y51.4099 
G01 X30.6896 Y51.4818 
G01 X30.6504 Y51.5497 
G01 X30.6282 Y51.5881 
G01 X30.4052 Y52.1266 
G01 X30.4052 Y52.6934 
G01 X30.6221 Y53.2171 
G01 X30.6398 Y53.2348 
G01 X30.7418 Y53.3368 
G01 X30.7954 Y53.4285 
G01 X30.8166 Y53.4652 
G01 X30.8338 Y53.5293 
G01 X30.8546 Y53.6067 
G01 X30.8546 Y53.7533 
G01 X30.8166 Y53.8948 
G01 X30.7434 Y54.0216 
G01 X30.6221 Y54.1429 
G01 X30.4052 Y54.6666 
G01 X30.4052 Y55.2334 
G01 X30.6221 Y55.7571 
G01 X30.6398 Y55.7748 
G01 X30.7418 Y55.8768 
G01 X30.7954 Y55.9685 
G01 X30.8166 Y56.0052 
G01 X30.8338 Y56.0693 
G01 X30.8546 Y56.1467 
G01 X30.8546 Y56.2933 
G01 X30.8166 Y56.4348 
G01 X30.7434 Y56.5616 
G01 X30.6221 Y56.6829 
G01 X30.4052 Y57.2066 
G01 X30.4052 Y57.7734 
G01 X30.6221 Y58.2971 
G01 X30.6398 Y58.3148 
G01 X30.7418 Y58.4168 
G01 X30.7954 Y58.5085 
G01 X30.8166 Y58.5452 
G01 X30.8338 Y58.6093 
G01 X30.8546 Y58.6867 
G01 X30.8546 Y58.8333 
G01 X30.8166 Y58.9748 
G01 X30.7434 Y59.1016 
G01 X30.6221 Y59.2229 
G01 X30.4052 Y59.7466 
G01 X30.4052 Y60.3134 
G01 X30.6221 Y60.8371 
G01 X30.6398 Y60.8548 
G01 X30.7418 Y60.9568 
G01 X30.7954 Y61.0485 
G01 X30.8166 Y61.0852 
G01 X30.8338 Y61.1493 
G01 X30.8546 Y61.2267 
G01 X30.8546 Y61.3733 
G01 X30.8166 Y61.5148 
G01 X30.7434 Y61.6416 
G01 X30.6221 Y61.7629 
G01 X30.4052 Y62.2866 
G01 X30.4052 Y62.8534 
G01 X30.6221 Y63.3771 
G01 X30.9367 Y63.6917 
G01 X30.9605 Y63.7090 
G01 X30.9882 Y63.7432 
G01 X31.0194 Y63.7744 
G01 X31.0342 Y63.7999 
G01 X31.0527 Y63.8228 
G01 X31.0706 Y63.8631 
G01 X31.0927 Y63.9013 
G01 X31.1003 Y63.9297 
G01 X31.1123 Y63.9567 
G01 X31.1192 Y64.0002 
G01 X31.1306 Y64.0428 
G01 X31.1306 Y64.0722 
G01 X31.1352 Y64.1014 
G01 X31.1306 Y64.1452 
G01 X31.1306 Y64.1893 
G01 X31.1243 Y64.2129 
G01 X31.2322 Y64.1345 
G01 X31.3922 Y64.0530 
G01 X31.5629 Y63.9975 
G01 X31.7402 Y63.9694 
G01 X31.9198 Y63.9694 
G01 X32.0971 Y63.9975 
G01 X32.2678 Y64.0530 
G01 X32.4278 Y64.1345 
G01 X32.5731 Y64.2400 
G01 X32.7000 Y64.3669 
G01 X32.8055 Y64.5122 
G01 X32.8870 Y64.6722 
G01 X32.9425 Y64.8429 
G01 X32.9706 Y65.0202 
G01 X32.9706 Y65.1998 
G01 X32.9425 Y65.3771 
G01 X32.8870 Y65.5478 
G01 X32.8055 Y65.7078 
G01 X32.7000 Y65.8530 
G01 X32.5731 Y65.9800 
G01 X32.4278 Y66.0855 
G01 X32.2678 Y66.1670 
G01 X32.0971 Y66.2225 
G01 X31.9198 Y66.2506 
G01 X31.7402 Y66.2506 
G01 X31.5629 Y66.2225 
G01 X31.3922 Y66.1670 
G01 X31.2322 Y66.0855 
G01 X31.1243 Y66.0071 
G01 X31.1306 Y66.0307 
G01 X31.1306 Y66.0748 
G01 X31.1352 Y66.1186 
G01 X31.1306 Y66.1477 
G01 X31.1306 Y66.1772 
G01 X31.1192 Y66.2198 
G01 X31.1123 Y66.2633 
G01 X31.1003 Y66.2903 
G01 X31.0927 Y66.3187 
G01 X31.0706 Y66.3569 
G01 X31.0527 Y66.3972 
G01 X31.0342 Y66.4201 
G01 X31.0194 Y66.4456 
G01 X30.9883 Y66.4768 
G01 X30.9605 Y66.5110 
G01 X30.9367 Y66.5284 
G01 X30.7668 Y66.6982 
G01 X30.6399 Y66.7715 
G01 X30.4984 Y66.8094 
G01 X30.1554 Y66.8094 
G01 X30.0139 Y66.7715 
G01 X29.8870 Y66.6982 
G01 X29.7834 Y66.5946 
G01 X27.9518 Y64.7630 
G01 X27.8785 Y64.6361 
G01 X27.8406 Y64.4946 
G01 X27.8406 Y52.8085 
G01 X27.7126 Y52.4995 
G01 X27.4497 Y52.2366 
G01 X26.8218 Y51.6086 
G01 X26.7485 Y51.4818 
G01 X26.7106 Y51.3403 
G01 X26.7106 Y51.1937 
G01 X26.7485 Y51.0522 
G01 X26.8218 Y50.9254 
G01 X26.9253 Y50.8218 
G01 X27.0522 Y50.7485 
G01 X27.1937 Y50.7106 
G01 X27.3402 Y50.7106 
G01 X30.0979 Y50.7106 
G00 Z2.4000 
G00 X53.8440 Y28.5295 
G01 Z-0.1000 F50.00 
G01 X51.0217 Y25.7072 F100.00 
G01 X50.9485 Y25.5803 
G01 X50.8692 Y25.5388 
G01 X50.7239 Y25.4333 
G01 X50.5970 Y25.3063 
G01 X50.4914 Y25.1611 
G01 X50.4099 Y25.0011 
G01 X50.3545 Y24.8304 
G01 X50.3264 Y24.6530 
G01 X50.3264 Y24.4735 
G01 X50.3545 Y24.2962 
G01 X50.3688 Y24.2520 
G01 X49.4695 Y23.3527 
G01 X49.2469 Y23.3527 
G01 X49.2258 Y23.3941 
G01 X49.1202 Y23.5394 
G01 X48.9933 Y23.6663 
G01 X48.8480 Y23.7718 
G01 X48.6881 Y23.8533 
G01 X48.5173 Y23.9088 
G01 X48.3400 Y23.9369 
G01 X48.1605 Y23.9369 
G01 X47.9831 Y23.9088 
G01 X47.8124 Y23.8533 
G01 X47.6524 Y23.7718 
G01 X47.5072 Y23.6663 
G01 X47.3802 Y23.5394 
G01 X47.2747 Y23.3941 
G01 X47.1932 Y23.2341 
G01 X47.1377 Y23.0634 
G01 X47.1096 Y22.8861 
G01 X47.1096 Y22.7065 
G01 X47.1377 Y22.5292 
G01 X47.1932 Y22.3585 
G01 X47.2747 Y22.1985 
G01 X47.3802 Y22.0532 
G01 X47.5072 Y21.9263 
G01 X47.6524 Y21.8208 
G01 X47.8124 Y21.7393 
G01 X47.9831 Y21.6838 
G01 X48.1605 Y21.6557 
G01 X48.3400 Y21.6557 
G01 X48.5173 Y21.6838 
G01 X48.6881 Y21.7393 
G01 X48.8480 Y21.8208 
G01 X48.9933 Y21.9263 
G01 X49.1202 Y22.0532 
G01 X49.2258 Y22.1985 
G01 X49.2469 Y22.2399 
G01 X49.7733 Y22.2399 
G01 X49.9148 Y22.2778 
G01 X50.0416 Y22.3511 
G01 X50.1452 Y22.4547 
G01 X51.1557 Y23.4651 
G01 X51.1999 Y23.4507 
G01 X51.3772 Y23.4227 
G01 X51.5567 Y23.4227 
G01 X51.7341 Y23.4507 
G01 X51.9048 Y23.5062 
G01 X52.0648 Y23.5877 
G01 X52.2100 Y23.6933 
G01 X52.3370 Y23.8202 
G01 X52.4425 Y23.9655 
G01 X52.5240 Y24.1254 
G01 X52.5795 Y24.2962 
G01 X52.6076 Y24.4735 
G01 X52.6076 Y24.6530 
G01 X52.5795 Y24.8304 
G01 X52.5240 Y25.0011 
G01 X52.4425 Y25.1611 
G01 X52.3370 Y25.3063 
G01 X52.2658 Y25.3775 
G01 X54.8456 Y27.9574 
G01 X54.9189 Y28.0842 
G01 X54.9568 Y28.2257 
G01 X54.9568 Y32.2949 
G01 X54.9189 Y32.4364 
G01 X54.8456 Y32.5633 
G01 X54.7421 Y32.6669 
G01 X54.6498 Y32.7201 
G01 X51.4504 Y35.9195 
G01 X51.3468 Y36.0231 
G01 X51.2199 Y36.0964 
G01 X51.0784 Y36.1343 
G01 X49.4787 Y36.1343 
G01 X47.7892 Y37.8238 
G01 X47.7892 Y38.4587 
G01 X47.0169 Y39.2310 
G01 X45.9247 Y39.2310 
G01 X45.1524 Y38.4587 
G01 X45.1524 Y37.3665 
G01 X45.9247 Y36.5942 
G01 X47.0169 Y36.5942 
G01 X47.2309 Y36.8083 
G01 X48.9065 Y35.1327 
G01 X49.0334 Y35.0594 
G01 X49.1749 Y35.0215 
G01 X50.7747 Y35.0215 
G01 X53.8440 Y31.9522 
G01 X53.8440 Y28.5295 
G00 Z2.4000 
G00 X49.4546 Y4.5356 
G01 Z-0.1000 F50.00 
G01 X49.4546 Y4.5356 F100.00 
G01 X47.6502 Y6.3399 
G01 X47.6502 Y11.9256 
G01 X47.6278 Y12.0380 
G01 X47.5840 Y12.1439 
G01 X47.5203 Y12.2392 
G01 X47.4393 Y12.3202 
G01 X44.7852 Y14.9743 
G01 X44.7852 Y17.2953 
G01 X45.2637 Y17.7738 
G01 X45.3274 Y17.8691 
G01 X45.3712 Y17.9750 
G01 X45.3936 Y18.0874 
G01 X45.3936 Y23.9408 
G01 X51.4686 Y30.0158 
G01 X51.4857 Y30.0103 
G01 X51.6630 Y29.9822 
G01 X51.8425 Y29.9822 
G01 X52.0198 Y30.0103 
G01 X52.1906 Y30.0658 
G01 X52.3506 Y30.1473 
G01 X52.4958 Y30.2528 
G01 X52.6228 Y30.3797 
G01 X52.7283 Y30.5250 
G01 X52.8098 Y30.6850 
G01 X52.8653 Y30.8557 
G01 X52.8934 Y31.0330 
G01 X52.8934 Y31.2126 
G01 X52.8653 Y31.3899 
G01 X52.8098 Y31.5606 
G01 X52.7283 Y31.7206 
G01 X52.6228 Y31.8658 
G01 X52.4958 Y31.9928 
G01 X52.3506 Y32.0983 
G01 X52.1906 Y32.1798 
G01 X52.0198 Y32.2353 
G01 X51.8425 Y32.2634 
G01 X51.6630 Y32.2634 
G01 X51.4857 Y32.2353 
G01 X51.4686 Y32.2298 
G01 X50.2901 Y33.4082 
G01 X50.1948 Y33.4719 
G01 X50.0890 Y33.5157 
G01 X49.9766 Y33.5381 
G01 X49.2339 Y33.5381 
G01 X49.2258 Y33.5541 
G01 X49.1202 Y33.6994 
G01 X48.9933 Y33.8263 
G01 X48.8480 Y33.9318 
G01 X48.6881 Y34.0133 
G01 X48.5173 Y34.0688 
G01 X48.3400 Y34.0969 
G01 X48.1605 Y34.0969 
G01 X47.9831 Y34.0688 
G01 X47.8124 Y34.0133 
G01 X47.6524 Y33.9318 
G01 X47.5072 Y33.8263 
G01 X47.3802 Y33.6994 
G01 X47.2747 Y33.5541 
G01 X47.1932 Y33.3941 
G01 X47.1377 Y33.2234 
G01 X47.1096 Y33.0461 
G01 X47.1096 Y32.8665 
G01 X47.1377 Y32.6892 
G01 X47.1932 Y32.5185 
G01 X47.2747 Y32.3585 
G01 X47.3802 Y32.2132 
G01 X47.5072 Y32.0863 
G01 X47.6524 Y31.9808 
G01 X47.8124 Y31.8993 
G01 X47.9831 Y31.8438 
G01 X48.1605 Y31.8157 
G01 X48.3400 Y31.8157 
G01 X48.5173 Y31.8438 
G01 X48.6881 Y31.8993 
G01 X48.8480 Y31.9808 
G01 X48.9933 Y32.0863 
G01 X49.1202 Y32.2132 
G01 X49.2258 Y32.3585 
G01 X49.2339 Y32.3745 
G01 X49.6783 Y32.3745 
G01 X50.6458 Y31.4070 
G01 X50.6402 Y31.3899 
G01 X50.6122 Y31.2126 
G01 X50.6122 Y31.0330 
G01 X50.6402 Y30.8557 
G01 X50.6458 Y30.8386 
G01 X44.3599 Y24.5527 
G01 X44.2962 Y24.4574 
G01 X44.2524 Y24.3515 
G01 X44.2300 Y24.2391 
G01 X44.2300 Y18.3857 
G01 X43.8326 Y17.9883 
G01 X43.7515 Y17.9072 
G01 X43.6879 Y17.8119 
G01 X43.6440 Y17.7060 
G01 X43.6216 Y17.5936 
G01 X43.6216 Y14.6760 
G01 X43.6440 Y14.5636 
G01 X43.6879 Y14.4577 
G01 X43.7515 Y14.3624 
G01 X46.4866 Y11.6273 
G01 X46.4866 Y6.0417 
G01 X46.5090 Y5.9293 
G01 X46.5528 Y5.8234 
G01 X46.6165 Y5.7281 
G01 X46.6975 Y5.6470 
G01 X48.6318 Y3.7128 
G01 X50.4494 Y1.8951 
G01 X50.5305 Y1.8141 
G01 X50.6258 Y1.7504 
G01 X50.7317 Y1.7066 
G01 X50.8441 Y1.6842 
G01 X89.3233 Y1.6842 
G01 X89.4357 Y1.7066 
G01 X89.5416 Y1.7504 
G01 X89.6369 Y1.8141 
G01 X89.7179 Y1.8951 
G01 X98.2113 Y10.3885 
G01 X98.2750 Y10.4838 
G01 X98.3188 Y10.5897 
G01 X98.3412 Y10.7021 
G01 X98.3412 Y10.8167 
G01 X98.3188 Y10.9291 
G01 X98.2750 Y11.0350 
G01 X98.2396 Y11.0879 
G01 X98.2396 Y19.9997 
G01 X100.4519 Y22.2120 
G01 X100.5156 Y22.3073 
G01 X100.5594 Y22.4132 
G01 X100.5818 Y22.5256 
G01 X100.5818 Y24.7590 
G01 X102.5428 Y26.7200 
G01 X104.7298 Y26.7200 
G01 X104.7298 Y25.9394 
G01 X104.7565 Y25.8749 
G01 X104.8058 Y25.8256 
G01 X104.8703 Y25.7989 
G01 X107.5951 Y25.7989 
G01 X107.6595 Y25.8256 
G01 X107.7089 Y25.8749 
G01 X107.7356 Y25.9394 
G01 X107.7356 Y28.6642 
G01 X107.7089 Y28.7286 
G01 X107.6595 Y28.7780 
G01 X107.5951 Y28.8047 
G01 X107.5187 Y28.8047 
G01 X107.4518 Y28.9361 
G01 X107.3199 Y29.1176 
G01 X102.1848 Y34.2527 
G01 X102.1848 Y44.8311 
G01 X102.1497 Y45.0527 
G01 X102.0804 Y45.2661 
G01 X101.9785 Y45.4660 
G01 X101.8466 Y45.6475 
G01 X101.6880 Y45.8061 
G01 X100.5846 Y46.9095 
G01 X100.4260 Y47.0681 
G01 X100.2445 Y47.2000 
G01 X100.0446 Y47.3019 
G01 X99.8312 Y47.3712 
G01 X99.6096 Y47.4063 
G01 X99.3852 Y47.4063 
G01 X99.1636 Y47.3712 
G01 X98.9502 Y47.3019 
G01 X98.7503 Y47.2000 
G01 X98.5688 Y47.0681 
G01 X98.4102 Y46.9095 
G01 X98.2783 Y46.7280 
G01 X98.1764 Y46.5281 
G01 X98.1071 Y46.3147 
G01 X98.0720 Y46.0931 
G01 X98.0720 Y45.8687 
G01 X98.1071 Y45.6471 
G01 X98.1764 Y45.4337 
G01 X98.2783 Y45.2338 
G01 X98.4102 Y45.0523 
G01 X99.3340 Y44.1285 
G01 X99.3340 Y34.8725 
G01 X93.2830 Y34.8725 
G01 X91.5800 Y36.5754 
G01 X91.5800 Y55.7551 
G01 X95.8521 Y60.0271 
G01 X98.4823 Y60.0271 
G01 X98.4823 Y59.8374 
G01 X98.5111 Y59.6190 
G01 X98.5681 Y59.4063 
G01 X98.6524 Y59.2028 
G01 X98.7625 Y59.0120 
G01 X98.8966 Y58.8373 
G01 X99.0523 Y58.6815 
G01 X99.2271 Y58.5474 
G01 X99.4179 Y58.4373 
G01 X99.6214 Y58.3530 
G01 X99.8341 Y58.2960 
G01 X100.0525 Y58.2672 
G01 X100.2728 Y58.2672 
G01 X100.4912 Y58.2960 
G01 X100.7039 Y58.3530 
G01 X100.9075 Y58.4373 
G01 X101.0982 Y58.5474 
G01 X101.2730 Y58.6815 
G01 X101.4287 Y58.8373 
G01 X101.5628 Y59.0120 
G01 X101.6729 Y59.2028 
G01 X101.7572 Y59.4063 
G01 X101.8143 Y59.6190 
G01 X101.8430 Y59.8374 
G01 X101.8430 Y63.0676 
G01 X101.8143 Y63.2860 
G01 X101.7572 Y63.4988 
G01 X101.6729 Y63.7023 
G01 X101.5628 Y63.8930 
G01 X101.4287 Y64.0678 
G01 X101.2730 Y64.2235 
G01 X101.0982 Y64.3576 
G01 X100.9075 Y64.4678 
G01 X100.7039 Y64.5521 
G01 X100.4912 Y64.6091 
G01 X100.2728 Y64.6378 
G01 X100.0525 Y64.6378 
G01 X99.8341 Y64.6091 
G01 X99.6214 Y64.5521 
G01 X99.4179 Y64.4678 
G01 X99.2271 Y64.3576 
G01 X99.0523 Y64.2235 
G01 X98.8966 Y64.0678 
G01 X98.7625 Y63.8930 
G01 X98.6524 Y63.7023 
G01 X98.5681 Y63.4988 
G01 X98.5111 Y63.2860 
G01 X98.4823 Y63.0676 
G01 X98.4823 Y62.8779 
G01 X95.1495 Y62.8779 
G01 X94.9279 Y62.8428 
G01 X94.7145 Y62.7735 
G01 X94.5146 Y62.6716 
G01 X94.3330 Y62.5398 
G01 X94.1744 Y62.3811 
G01 X89.2794 Y57.4861 
G01 X89.1545 Y57.4861 
G01 X89.0900 Y57.4594 
G01 X89.0407 Y57.4100 
G01 X89.0140 Y57.3456 
G01 X89.0140 Y57.2006 
G01 X88.9355 Y57.0925 
G01 X88.8336 Y56.8926 
G01 X88.7643 Y56.6793 
G01 X88.7292 Y56.4577 
G01 X88.7292 Y35.8728 
G01 X88.7643 Y35.6512 
G01 X88.8336 Y35.4378 
G01 X88.9355 Y35.2379 
G01 X89.0674 Y35.0564 
G01 X89.2260 Y34.8978 
G01 X91.7639 Y32.3598 
G01 X91.9455 Y32.2279 
G01 X92.1454 Y32.1261 
G01 X92.3588 Y32.0568 
G01 X92.5804 Y32.0217 
G01 X100.3842 Y32.0217 
G01 X104.5223 Y27.8836 
G01 X102.2445 Y27.8836 
G01 X102.1321 Y27.8612 
G01 X102.0262 Y27.8174 
G01 X101.9309 Y27.7537 
G01 X101.8499 Y27.6727 
G01 X99.5481 Y25.3709 
G01 X99.4844 Y25.2756 
G01 X99.4406 Y25.1697 
G01 X99.4182 Y25.0573 
G01 X99.4182 Y22.8239 
G01 X97.3075 Y20.7132 
G01 X97.2438 Y20.6179 
G01 X97.2000 Y20.5120 
G01 X97.1776 Y20.3996 
G01 X97.1776 Y20.2850 
G01 X97.2000 Y20.1726 
G01 X97.2438 Y20.0667 
G01 X97.2792 Y20.0138 
G01 X97.2792 Y11.1020 
G01 X89.0250 Y2.8478 
G01 X72.2410 Y2.8478 
G01 X69.7746 Y5.3142 
G01 X69.7746 Y5.4351 
G01 X69.7903 Y5.4456 
G01 X69.9209 Y5.5761 
G01 X70.0235 Y5.7297 
G01 X70.0942 Y5.9003 
G01 X70.1302 Y6.0814 
G01 X70.1302 Y7.7900 
G01 X70.0942 Y7.9711 
G01 X70.0235 Y8.1417 
G01 X69.9209 Y8.2953 
G01 X69.7903 Y8.4258 
G01 X69.6368 Y8.5284 
G01 X69.4662 Y8.5991 
G01 X69.2851 Y8.6351 
G01 X69.1005 Y8.6351 
G01 X68.9194 Y8.5991 
G01 X68.7488 Y8.5284 
G01 X68.5952 Y8.4258 
G01 X68.4647 Y8.2953 
G01 X68.3621 Y8.1417 
G01 X68.2914 Y7.9711 
G01 X68.2554 Y7.7900 
G01 X68.2554 Y6.0814 
G01 X68.2914 Y5.9003 
G01 X68.3621 Y5.7297 
G01 X68.4647 Y5.5761 
G01 X68.5952 Y5.4456 
G01 X68.6110 Y5.4351 
G01 X68.6110 Y5.0159 
G01 X68.6334 Y4.9035 
G01 X68.6772 Y4.7976 
G01 X68.7409 Y4.7023 
G01 X68.8219 Y4.6213 
G01 X70.5954 Y2.8478 
G01 X51.1424 Y2.8478 
G01 X49.4546 Y4.5356 
G00 Z2.4000 
G00 X65.0502 Y6.0814 
G01 Z-0.1000 F50.00 
G01 X65.0502 Y7.7900 F100.00 
G01 X65.0142 Y7.9711 
G01 X64.9435 Y8.1417 
G01 X64.8409 Y8.2953 
G01 X64.7103 Y8.4258 
G01 X64.5568 Y8.5284 
G01 X64.3862 Y8.5991 
G01 X64.2051 Y8.6351 
G01 X64.0205 Y8.6351 
G01 X63.8394 Y8.5991 
G01 X63.6688 Y8.5284 
G01 X63.5152 Y8.4258 
G01 X63.3847 Y8.2953 
G01 X63.2821 Y8.1417 
G01 X63.2114 Y7.9711 
G01 X63.1754 Y7.7900 
G01 X63.1754 Y7.4921 
G01 X60.0248 Y7.4921 
G01 X56.3416 Y11.1752 
G01 X56.2148 Y11.2485 
G01 X56.0733 Y11.2864 
G01 X55.8980 Y11.2864 
G01 X55.1991 Y11.9852 
G01 X55.0723 Y12.0585 
G01 X54.9308 Y12.0964 
G01 X52.7564 Y12.0964 
G01 X52.6636 Y12.1892 
G01 X52.5267 Y12.2807 
G01 X52.3746 Y12.3437 
G01 X52.2131 Y12.3758 
G01 X50.7277 Y12.3758 
G01 X50.5662 Y12.3437 
G01 X50.4141 Y12.2807 
G01 X50.2772 Y12.1892 
G01 X50.1608 Y12.0728 
G01 X50.0693 Y11.9359 
G01 X50.0063 Y11.7838 
G01 X49.9742 Y11.6223 
G01 X49.9742 Y11.4577 
G01 X50.0063 Y11.2962 
G01 X50.0693 Y11.1441 
G01 X50.1608 Y11.0072 
G01 X50.2772 Y10.8908 
G01 X50.4141 Y10.7993 
G01 X50.5662 Y10.7363 
G01 X50.7277 Y10.7042 
G01 X52.2131 Y10.7042 
G01 X52.3746 Y10.7363 
G01 X52.5267 Y10.7993 
G01 X52.6636 Y10.8908 
G01 X52.7564 Y10.9836 
G01 X54.6270 Y10.9836 
G01 X55.2223 Y10.3884 
G01 X55.3259 Y10.2848 
G01 X55.4527 Y10.2115 
G01 X55.5942 Y10.1736 
G01 X55.7695 Y10.1736 
G01 X59.3491 Y6.5941 
G01 X59.4527 Y6.4905 
G01 X59.5795 Y6.4172 
G01 X59.7210 Y6.3793 
G01 X63.1754 Y6.3793 
G01 X63.1754 Y6.0814 
G01 X63.2114 Y5.9003 
G01 X63.2821 Y5.7297 
G01 X63.3847 Y5.5761 
G01 X63.5152 Y5.4456 
G01 X63.6688 Y5.3430 
G01 X63.8394 Y5.2723 
G01 X64.0205 Y5.2363 
G01 X64.2051 Y5.2363 
G01 X64.3862 Y5.2723 
G01 X64.5568 Y5.3430 
G01 X64.7103 Y5.4456 
G01 X64.8409 Y5.5761 
G01 X64.9435 Y5.7297 
G01 X65.0142 Y5.9003 
G01 X65.0502 Y6.0814 
G00 Z2.4000 
G00 X67.5902 Y6.0814 
G01 Z-0.1000 F50.00 
G01 X67.5902 Y7.7900 F100.00 
G01 X67.5542 Y7.9711 
G01 X67.4835 Y8.1417 
G01 X67.3809 Y8.2953 
G01 X67.2503 Y8.4258 
G01 X67.2278 Y8.4409 
G01 X68.2305 Y9.4436 
G01 X72.7695 Y9.4436 
G01 X72.9598 Y9.2533 
G01 X73.0867 Y9.1801 
G01 X73.2282 Y9.1422 
G01 X76.9735 Y9.1422 
G01 X76.9735 Y8.0835 
G01 X77.0023 Y7.8651 
G01 X77.0593 Y7.6523 
G01 X77.1436 Y7.4488 
G01 X77.2537 Y7.2580 
G01 X77.3878 Y7.0833 
G01 X77.5435 Y6.9275 
G01 X77.7183 Y6.7934 
G01 X77.9091 Y6.6833 
G01 X78.1126 Y6.5990 
G01 X78.3253 Y6.5420 
G01 X78.5437 Y6.5133 
G01 X78.7640 Y6.5133 
G01 X78.9824 Y6.5420 
G01 X79.1951 Y6.5990 
G01 X79.3986 Y6.6833 
G01 X79.5894 Y6.7934 
G01 X79.7642 Y6.9275 
G01 X79.9199 Y7.0833 
G01 X80.0540 Y7.2580 
G01 X80.1641 Y7.4488 
G01 X80.2484 Y7.6523 
G01 X80.3054 Y7.8651 
G01 X80.3342 Y8.0835 
G01 X80.3342 Y11.3136 
G01 X80.3054 Y11.5320 
G01 X80.2484 Y11.7448 
G01 X80.1641 Y11.9483 
G01 X80.0540 Y12.1391 
G01 X79.9199 Y12.3138 
G01 X79.7642 Y12.4696 
G01 X79.5894 Y12.6037 
G01 X79.3986 Y12.7138 
G01 X79.1951 Y12.7981 
G01 X78.9824 Y12.8551 
G01 X78.7640 Y12.8838 
G01 X78.5437 Y12.8838 
G01 X78.3253 Y12.8551 
G01 X78.1126 Y12.7981 
G01 X77.9091 Y12.7138 
G01 X77.7183 Y12.6037 
G01 X77.5435 Y12.4696 
G01 X77.3878 Y12.3138 
G01 X77.2537 Y12.1391 
